(G-CODE GENERATED BY FLATCAM v8.913 - www.flatcam.org - Version Date: 2019/04/13)

(Name: pic_beeper-Edge.Cuts.gbr_cutout_cnc)
(Type: G-code from Geometry)
(Units: MM)

(Created on Monday, 06 May 2019 at 12:07)

(TOOL DIAMETER: 0.8 mm)

(Feedrate: 50.0 mm/min)
(Feedrate_Z: 50.0 mm/min)
(Feedrate rapids 76.2 mm/min)

(Z_Cut: -2.0 mm)
(Z_Move: 2.54 mm)
(Z Toolchange: 20.0 mm)
(X,Y Toolchange: 0.0000, 0.0000 mm)
(Z Start: None mm)
(Z End: 20.0 mm)
(Steps per circle: 64)
(Postprocessor Geometry: grbl_11)

(X range:   -0.5000 ...   33.5199  mm)
(Y range:  -41.1399 ...    0.4999  mm)

(Spindle Speed: 20000 RPM)


G21
G90
G94
G17

G01 F50.00
G00 Z2.5400

M03 S20000
G4 P1.0
G00 X-0.4998 Y-5.0726
G01 F50.00
G01 Z-2.0000
G01 F50.00
G01 X-0.4987 Y-5.1143 F50.00
G01 X-0.4968 Y-5.1370 F50.00
G01 X-0.4935 Y-5.1596 F50.00
G01 X-0.4870 Y-5.1933 F50.00
G01 X-0.4750 Y-5.2355 F50.00
G01 X-0.4750 Y-9.6101 F50.00
G00 Z2.5400
G00 X-0.4750 Y-10.6101
G01 F50.00
G01 Z-2.0000
G01 F50.00
G01 X-0.4750 Y-30.0300 F50.00
G00 Z2.5400
G00 X-0.4750 Y-31.0300
G01 F50.00
G01 Z-2.0000
G01 F50.00
G01 X-0.4750 Y-35.4044 F50.00
G01 X-0.4800 Y-35.4198 F50.00
G01 X-0.4857 Y-35.4415 F50.00
G01 X-0.4927 Y-35.4744 F50.00
G01 X-0.4972 Y-35.5077 F50.00
G01 X-0.4992 Y-35.5301 F50.00
G01 X-0.4998 Y-35.5750 F50.00
G01 X-0.4715 Y-36.1172 F50.00
G01 X-0.4699 Y-36.1381 F50.00
G01 X-0.4661 Y-36.1692 F50.00
G01 X-0.3829 Y-36.6944 F50.00
G01 X-0.3769 Y-36.7253 F50.00
G01 X-0.3720 Y-36.7456 F50.00
G01 X-0.2344 Y-37.2592 F50.00
G01 X-0.2284 Y-37.2793 F50.00
G01 X-0.2182 Y-37.3090 F50.00
G01 X-0.0276 Y-37.8054 F50.00
G01 X-0.0196 Y-37.8248 F50.00
G01 X-0.0064 Y-37.8532 F50.00
G01 X0.2350 Y-38.3270 F50.00
G01 X0.2503 Y-38.3545 F50.00
G01 X0.2612 Y-38.3723 F50.00
G01 X0.5508 Y-38.8183 F50.00
G01 X0.5627 Y-38.8356 F50.00
G01 X0.5816 Y-38.8606 F50.00
G01 X0.9162 Y-39.2739 F50.00
G01 X0.9368 Y-39.2976 F50.00
G01 X0.9512 Y-39.3128 F50.00
G01 X1.3272 Y-39.6888 F50.00
G01 X1.3424 Y-39.7032 F50.00
G01 X1.3661 Y-39.7238 F50.00
G01 X1.7794 Y-40.0584 F50.00
G01 X1.8044 Y-40.0773 F50.00
G01 X1.8217 Y-40.0892 F50.00
G01 X2.2677 Y-40.3788 F50.00
G01 X2.2855 Y-40.3897 F50.00
G01 X2.3130 Y-40.4050 F50.00
G01 X2.7868 Y-40.6464 F50.00
G01 X2.8152 Y-40.6596 F50.00
G01 X2.8346 Y-40.6676 F50.00
G01 X3.3310 Y-40.8582 F50.00
G01 X3.3607 Y-40.8684 F50.00
G01 X3.3808 Y-40.8744 F50.00
G01 X3.8944 Y-41.0120 F50.00
G01 X3.9250 Y-41.0191 F50.00
G01 X3.9456 Y-41.0229 F50.00
G01 X4.4708 Y-41.1061 F50.00
G01 X4.4915 Y-41.1088 F50.00
G01 X4.5228 Y-41.1115 F50.00
G01 X5.0538 Y-41.1394 F50.00
G01 X5.0763 Y-41.1399 F50.00
G01 X5.1099 Y-41.1392 F50.00
G01 X5.1323 Y-41.1372 F50.00
G01 X5.1656 Y-41.1327 F50.00
G01 X5.1985 Y-41.1257 F50.00
G01 X5.2202 Y-41.1200 F50.00
G01 X5.2356 Y-41.1150 F50.00
G01 X7.7049 Y-41.1150 F50.00
G00 Z2.5400
G00 X8.7049 Y-41.1150
G01 F50.00
G01 Z-2.0000
G01 F50.00
G01 X24.3149 Y-41.1150 F50.00
G00 Z2.5400
G00 X25.3149 Y-41.1150
G01 F50.00
G01 Z-2.0000
G01 F50.00
G01 X27.7844 Y-41.1150 F50.00
G01 X27.8016 Y-41.1205 F50.00
G01 X27.8233 Y-41.1261 F50.00
G01 X27.8562 Y-41.1330 F50.00
G01 X27.8785 Y-41.1361 F50.00
G01 X27.9120 Y-41.1393 F50.00
G01 X27.9456 Y-41.1399 F50.00
G01 X27.9680 Y-41.1393 F50.00
G01 X28.5368 Y-41.1073 F50.00
G01 X28.5592 Y-41.1054 F50.00
G01 X28.5925 Y-41.1010 F50.00
G01 X29.1542 Y-41.0056 F50.00
G01 X29.1762 Y-41.0012 F50.00
G01 X29.2088 Y-40.9931 F50.00
G01 X29.7562 Y-40.8354 F50.00
G01 X29.7776 Y-40.8286 F50.00
G01 X29.8092 Y-40.8169 F50.00
G01 X30.3355 Y-40.5989 F50.00
G01 X30.3661 Y-40.5849 F50.00
G01 X30.3860 Y-40.5746 F50.00
G01 X30.8846 Y-40.2990 F50.00
G01 X30.9134 Y-40.2816 F50.00
G01 X30.9321 Y-40.2692 F50.00
G01 X31.3967 Y-39.9395 F50.00
G01 X31.4234 Y-39.9190 F50.00
G01 X31.4405 Y-39.9046 F50.00
G01 X31.8653 Y-39.5250 F50.00
G01 X31.8895 Y-39.5016 F50.00
G01 X31.9050 Y-39.4853 F50.00
G01 X32.2846 Y-39.0605 F50.00
G01 X32.2990 Y-39.0434 F50.00
G01 X32.3195 Y-39.0167 F50.00
G01 X32.6492 Y-38.5521 F50.00
G01 X32.6676 Y-38.5239 F50.00
G01 X32.6790 Y-38.5046 F50.00
G01 X32.9546 Y-38.0060 F50.00
G01 X32.9697 Y-37.9760 F50.00
G01 X32.9789 Y-37.9555 F50.00
G01 X33.1969 Y-37.4292 F50.00
G01 X33.2049 Y-37.4082 F50.00
G01 X33.2154 Y-37.3762 F50.00
G01 X33.3731 Y-36.8288 F50.00
G01 X33.3812 Y-36.7962 F50.00
G01 X33.3856 Y-36.7742 F50.00
G01 X33.4828 Y-36.2015 F50.00
G01 X33.4873 Y-36.1568 F50.00
G01 X33.5193 Y-35.5880 F50.00
G01 X33.5199 Y-35.5656 F50.00
G01 X33.5193 Y-35.5320 F50.00
G01 X33.5161 Y-35.4985 F50.00
G01 X33.5130 Y-35.4762 F50.00
G01 X33.5061 Y-35.4433 F50.00
G01 X33.5005 Y-35.4216 F50.00
G01 X33.4950 Y-35.4044 F50.00
G01 X33.4950 Y-31.0300 F50.00
G00 Z2.5400
G00 X33.4950 Y-30.0300
G01 F50.00
G01 Z-2.0000
G01 F50.00
G01 X33.4950 Y-10.6101 F50.00
G00 Z2.5400
G00 X33.4950 Y-9.6101
G01 F50.00
G01 Z-2.0000
G01 F50.00
G01 X33.4950 Y-5.2356 F50.00
G01 X33.5005 Y-5.2184 F50.00
G01 X33.5061 Y-5.1967 F50.00
G01 X33.5130 Y-5.1638 F50.00
G01 X33.5161 Y-5.1415 F50.00
G01 X33.5193 Y-5.1080 F50.00
G01 X33.5199 Y-5.0744 F50.00
G01 X33.5193 Y-5.0520 F50.00
G01 X33.4873 Y-4.4832 F50.00
G01 X33.4828 Y-4.4385 F50.00
G01 X33.3856 Y-3.8658 F50.00
G01 X33.3787 Y-3.8329 F50.00
G01 X33.3731 Y-3.8112 F50.00
G01 X33.2154 Y-3.2638 F50.00
G01 X33.2049 Y-3.2318 F50.00
G01 X33.1969 Y-3.2108 F50.00
G01 X32.9789 Y-2.6845 F50.00
G01 X32.9649 Y-2.6539 F50.00
G01 X32.9546 Y-2.6340 F50.00
G01 X32.6790 Y-2.1354 F50.00
G01 X32.6676 Y-2.1161 F50.00
G01 X32.6492 Y-2.0879 F50.00
G01 X32.3195 Y-1.6233 F50.00
G01 X32.2990 Y-1.5966 F50.00
G01 X32.2846 Y-1.5795 F50.00
G01 X31.9050 Y-1.1547 F50.00
G01 X31.8895 Y-1.1384 F50.00
G01 X31.8653 Y-1.1150 F50.00
G01 X31.4405 Y-0.7354 F50.00
G01 X31.4146 Y-0.7140 F50.00
G01 X31.3967 Y-0.7005 F50.00
G01 X30.9321 Y-0.3708 F50.00
G01 X30.9039 Y-0.3524 F50.00
G01 X30.8846 Y-0.3410 F50.00
G01 X30.3860 Y-0.0654 F50.00
G01 X30.3661 Y-0.0551 F50.00
G01 X30.3355 Y-0.0411 F50.00
G01 X29.8092 Y0.1769 F50.00
G01 X29.7882 Y0.1849 F50.00
G01 X29.7562 Y0.1954 F50.00
G01 X29.2088 Y0.3531 F50.00
G01 X29.1762 Y0.3612 F50.00
G01 X29.1542 Y0.3656 F50.00
G01 X28.5925 Y0.4610 F50.00
G01 X28.5703 Y0.4642 F50.00
G01 X28.5368 Y0.4673 F50.00
G01 X27.9680 Y0.4993 F50.00
G01 X27.9456 Y0.4999 F50.00
G01 X27.9120 Y0.4993 F50.00
G01 X27.8785 Y0.4961 F50.00
G01 X27.8562 Y0.4930 F50.00
G01 X27.8233 Y0.4861 F50.00
G01 X27.8016 Y0.4805 F50.00
G01 X27.7844 Y0.4750 F50.00
G01 X25.3149 Y0.4750 F50.00
G00 Z2.5400
G00 X24.3149 Y0.4750
G01 F50.00
G01 Z-2.0000
G01 F50.00
G01 X8.7049 Y0.4750 F50.00
G00 Z2.5400
G00 X7.7049 Y0.4750
G01 F50.00
G01 Z-2.0000
G01 F50.00
G01 X5.2356 Y0.4750 F50.00
G01 X5.2184 Y0.4805 F50.00
G01 X5.1967 Y0.4861 F50.00
G01 X5.1638 Y0.4930 F50.00
G01 X5.1415 Y0.4961 F50.00
G01 X5.1080 Y0.4993 F50.00
G01 X5.0744 Y0.4999 F50.00
G01 X5.0520 Y0.4993 F50.00
G01 X4.4832 Y0.4673 F50.00
G01 X4.4385 Y0.4628 F50.00
G01 X3.8658 Y0.3656 F50.00
G01 X3.8329 Y0.3587 F50.00
G01 X3.8112 Y0.3531 F50.00
G01 X3.2638 Y0.1954 F50.00
G01 X3.2318 Y0.1849 F50.00
G01 X3.2108 Y0.1769 F50.00
G01 X2.6845 Y-0.0411 F50.00
G01 X2.6539 Y-0.0551 F50.00
G01 X2.6340 Y-0.0654 F50.00
G01 X2.1354 Y-0.3410 F50.00
G01 X2.0972 Y-0.3645 F50.00
G01 X1.6233 Y-0.7005 F50.00
G01 X1.5966 Y-0.7210 F50.00
G01 X1.5795 Y-0.7354 F50.00
G01 X1.1547 Y-1.1150 F50.00
G01 X1.1384 Y-1.1305 F50.00
G01 X1.1150 Y-1.1547 F50.00
G01 X0.7354 Y-1.5795 F50.00
G01 X0.7210 Y-1.5966 F50.00
G01 X0.7005 Y-1.6233 F50.00
G01 X0.3708 Y-2.0879 F50.00
G01 X0.3584 Y-2.1066 F50.00
G01 X0.3410 Y-2.1354 F50.00
G01 X0.0654 Y-2.6340 F50.00
G01 X0.0551 Y-2.6539 F50.00
G01 X0.0411 Y-2.6845 F50.00
G01 X-0.1769 Y-3.2108 F50.00
G01 X-0.1849 Y-3.2318 F50.00
G01 X-0.1954 Y-3.2638 F50.00
G01 X-0.3531 Y-3.8112 F50.00
G01 X-0.3587 Y-3.8329 F50.00
G01 X-0.3656 Y-3.8658 F50.00
G01 X-0.4610 Y-4.4275 F50.00
G01 X-0.4642 Y-4.4497 F50.00
G01 X-0.4673 Y-4.4832 F50.00
G01 X-0.4993 Y-5.0520 F50.00
G01 X-0.4998 Y-5.0726 F50.00
G00 Z2.5400
M05
G00 Z2.5400
G00 Z20.00
G00 X0.0 Y0.0

M02