(G-CODE GENERATED BY FLATCAM v8.913 - www.flatcam.org - Version Date: 2019/04/13)

(Name: pic_beeper-PTH.drl_mill_cnc)
(Type: G-code from Geometry)
(Units: MM)

(Created on Monday, 06 May 2019 at 11:52)

(TOOL DIAMETER: 0.8 mm)

(Feedrate: 50.0 mm/min)
(Feedrate_Z: 50.0 mm/min)
(Feedrate rapids 76.2 mm/min)

(Z_Cut: -2.0 mm)
(Z_Move: 2.54 mm)
(Z Toolchange: 25.4 mm)
(X,Y Toolchange: 0.0000, 0.0000 mm)
(Z Start: None mm)
(Z End: 50.8 mm)
(Steps per circle: 64)
(Postprocessor Geometry: grbl_11)

(X range:    3.7300 ...   29.3100  mm)
(Y range:  -37.5650 ...   -3.7300  mm)

(Spindle Speed: 20000 RPM)


G21
G90
G94
G17

G01 F50.00
G00 Z2.5400

M03 S20000
G4 P1.0
G00 X6.4300 Y-5.0800
G01 F50.00
G01 Z-2.0000
G01 F50.00
G01 X6.4235 Y-5.2123 F50.00
G01 X6.4041 Y-5.3434 F50.00
G01 X6.3719 Y-5.4719 F50.00
G01 X6.3272 Y-5.5966 F50.00
G01 X6.2706 Y-5.7164 F50.00
G01 X6.2025 Y-5.8300 F50.00
G01 X6.1236 Y-5.9364 F50.00
G01 X6.0346 Y-6.0346 F50.00
G01 X5.9364 Y-6.1236 F50.00
G01 X5.8300 Y-6.2025 F50.00
G01 X5.7164 Y-6.2706 F50.00
G01 X5.5966 Y-6.3272 F50.00
G01 X5.4719 Y-6.3719 F50.00
G01 X5.3434 Y-6.4041 F50.00
G01 X5.2123 Y-6.4235 F50.00
G01 X5.0800 Y-6.4300 F50.00
G01 X4.9477 Y-6.4235 F50.00
G01 X4.8166 Y-6.4041 F50.00
G01 X4.6881 Y-6.3719 F50.00
G01 X4.5634 Y-6.3272 F50.00
G01 X4.4436 Y-6.2706 F50.00
G01 X4.3300 Y-6.2025 F50.00
G01 X4.2236 Y-6.1236 F50.00
G01 X4.1254 Y-6.0346 F50.00
G01 X4.0364 Y-5.9364 F50.00
G01 X3.9575 Y-5.8300 F50.00
G01 X3.8894 Y-5.7164 F50.00
G01 X3.8328 Y-5.5966 F50.00
G01 X3.7881 Y-5.4719 F50.00
G01 X3.7559 Y-5.3434 F50.00
G01 X3.7365 Y-5.2123 F50.00
G01 X3.7300 Y-5.0800 F50.00
G01 X3.7365 Y-4.9477 F50.00
G01 X3.7559 Y-4.8166 F50.00
G01 X3.7881 Y-4.6881 F50.00
G01 X3.8328 Y-4.5634 F50.00
G01 X3.8894 Y-4.4436 F50.00
G01 X3.9575 Y-4.3300 F50.00
G01 X4.0364 Y-4.2236 F50.00
G01 X4.1254 Y-4.1254 F50.00
G01 X4.2236 Y-4.0364 F50.00
G01 X4.3300 Y-3.9575 F50.00
G01 X4.4436 Y-3.8894 F50.00
G01 X4.5634 Y-3.8328 F50.00
G01 X4.6881 Y-3.7881 F50.00
G01 X4.8166 Y-3.7559 F50.00
G01 X4.9477 Y-3.7365 F50.00
G01 X5.0800 Y-3.7300 F50.00
G01 X5.2123 Y-3.7365 F50.00
G01 X5.3434 Y-3.7559 F50.00
G01 X5.4719 Y-3.7881 F50.00
G01 X5.5966 Y-3.8328 F50.00
G01 X5.7164 Y-3.8894 F50.00
G01 X5.8300 Y-3.9575 F50.00
G01 X5.9364 Y-4.0364 F50.00
G01 X6.0346 Y-4.1254 F50.00
G01 X6.1236 Y-4.2236 F50.00
G01 X6.2025 Y-4.3300 F50.00
G01 X6.2706 Y-4.4436 F50.00
G01 X6.3272 Y-4.5634 F50.00
G01 X6.3719 Y-4.6881 F50.00
G01 X6.4041 Y-4.8166 F50.00
G01 X6.4235 Y-4.9477 F50.00
G01 X6.4300 Y-5.0800 F50.00
G00 Z2.5400
G00 X6.4500 Y-22.8800
G01 F50.00
G01 Z-2.0000
G01 F50.00
G01 X6.4481 Y-22.8995 F50.00
G01 X6.4424 Y-22.9183 F50.00
G01 X6.4331 Y-22.9356 F50.00
G01 X6.4207 Y-22.9507 F50.00
G01 X6.4056 Y-22.9631 F50.00
G01 X6.3883 Y-22.9724 F50.00
G01 X6.3695 Y-22.9781 F50.00
G01 X6.3500 Y-22.9800 F50.00
G01 X6.3305 Y-22.9781 F50.00
G01 X6.3117 Y-22.9724 F50.00
G01 X6.2944 Y-22.9631 F50.00
G01 X6.2793 Y-22.9507 F50.00
G01 X6.2669 Y-22.9356 F50.00
G01 X6.2576 Y-22.9183 F50.00
G01 X6.2519 Y-22.8995 F50.00
G01 X6.2500 Y-22.8800 F50.00
G01 X6.2519 Y-22.8605 F50.00
G01 X6.2576 Y-22.8417 F50.00
G01 X6.2669 Y-22.8244 F50.00
G01 X6.2793 Y-22.8093 F50.00
G01 X6.2944 Y-22.7969 F50.00
G01 X6.3117 Y-22.7876 F50.00
G01 X6.3305 Y-22.7819 F50.00
G01 X6.3500 Y-22.7800 F50.00
G01 X6.3695 Y-22.7819 F50.00
G01 X6.3883 Y-22.7876 F50.00
G01 X6.4056 Y-22.7969 F50.00
G01 X6.4207 Y-22.8093 F50.00
G01 X6.4331 Y-22.8244 F50.00
G01 X6.4424 Y-22.8417 F50.00
G01 X6.4481 Y-22.8605 F50.00
G01 X6.4500 Y-22.8800 F50.00
G00 Z2.5400
G00 X6.4500 Y-30.4800
G01 F50.00
G01 Z-2.0000
G01 F50.00
G01 X6.4481 Y-30.4995 F50.00
G01 X6.4424 Y-30.5183 F50.00
G01 X6.4331 Y-30.5356 F50.00
G01 X6.4207 Y-30.5507 F50.00
G01 X6.4056 Y-30.5631 F50.00
G01 X6.3883 Y-30.5724 F50.00
G01 X6.3695 Y-30.5781 F50.00
G01 X6.3500 Y-30.5800 F50.00
G01 X6.3305 Y-30.5781 F50.00
G01 X6.3117 Y-30.5724 F50.00
G01 X6.2944 Y-30.5631 F50.00
G01 X6.2793 Y-30.5507 F50.00
G01 X6.2669 Y-30.5356 F50.00
G01 X6.2576 Y-30.5183 F50.00
G01 X6.2519 Y-30.4995 F50.00
G01 X6.2500 Y-30.4800 F50.00
G01 X6.2519 Y-30.4605 F50.00
G01 X6.2576 Y-30.4417 F50.00
G01 X6.2669 Y-30.4244 F50.00
G01 X6.2793 Y-30.4093 F50.00
G01 X6.2944 Y-30.3969 F50.00
G01 X6.3117 Y-30.3876 F50.00
G01 X6.3305 Y-30.3819 F50.00
G01 X6.3500 Y-30.3800 F50.00
G01 X6.3695 Y-30.3819 F50.00
G01 X6.3883 Y-30.3876 F50.00
G01 X6.4056 Y-30.3969 F50.00
G01 X6.4207 Y-30.4093 F50.00
G01 X6.4331 Y-30.4244 F50.00
G01 X6.4424 Y-30.4417 F50.00
G01 X6.4481 Y-30.4605 F50.00
G01 X6.4500 Y-30.4800 F50.00
G00 Z2.5400
G00 X16.5100 Y-29.8450
G01 F50.00
G01 Z-2.0000
G01 F50.00
G01 X16.5100 Y-29.8450 F50.00
G01 X16.5100 Y-29.8450 F50.00
G01 X16.5100 Y-29.8450 F50.00
G01 X16.5100 Y-29.8450 F50.00
G00 Z2.5400
G00 X16.5100 Y-27.3050
G01 F50.00
G01 Z-2.0000
G01 F50.00
G01 X16.5100 Y-27.3050 F50.00
G01 X16.5100 Y-27.3050 F50.00
G01 X16.5100 Y-27.3050 F50.00
G01 X16.5100 Y-27.3050 F50.00
G00 Z2.5400
G00 X16.5100 Y-32.3850
G01 F50.00
G01 Z-2.0000
G01 F50.00
G01 X16.5100 Y-32.3850 F50.00
G01 X16.5100 Y-32.3850 F50.00
G01 X16.5100 Y-32.3850 F50.00
G01 X16.5100 Y-32.3850 F50.00
G00 Z2.5400
G00 X16.5100 Y-34.9250
G01 F50.00
G01 Z-2.0000
G01 F50.00
G01 X16.5100 Y-34.9250 F50.00
G01 X16.5100 Y-34.9250 F50.00
G01 X16.5100 Y-34.9250 F50.00
G01 X16.5100 Y-34.9250 F50.00
G00 Z2.5400
G00 X24.1300 Y-34.9250
G01 F50.00
G01 Z-2.0000
G01 F50.00
G01 X24.1300 Y-34.9250 F50.00
G01 X24.1300 Y-34.9250 F50.00
G01 X24.1300 Y-34.9250 F50.00
G01 X24.1300 Y-34.9250 F50.00
G00 Z2.5400
G00 X24.1300 Y-32.3850
G01 F50.00
G01 Z-2.0000
G01 F50.00
G01 X24.1300 Y-32.3850 F50.00
G01 X24.1300 Y-32.3850 F50.00
G01 X24.1300 Y-32.3850 F50.00
G01 X24.1300 Y-32.3850 F50.00
G00 Z2.5400
G00 X24.1300 Y-29.8450
G01 F50.00
G01 Z-2.0000
G01 F50.00
G01 X24.1300 Y-29.8450 F50.00
G01 X24.1300 Y-29.8450 F50.00
G01 X24.1300 Y-29.8450 F50.00
G01 X24.1300 Y-29.8450 F50.00
G00 Z2.5400
G00 X24.1300 Y-27.3050
G01 F50.00
G01 Z-2.0000
G01 F50.00
G01 X24.1300 Y-27.3050 F50.00
G01 X24.1300 Y-27.3050 F50.00
G01 X24.1300 Y-27.3050 F50.00
G01 X24.1300 Y-27.3050 F50.00
G00 Z2.5400
G00 X29.3100 Y-27.3050
G01 F50.00
G01 Z-2.0000
G01 F50.00
G01 X29.3081 Y-27.3245 F50.00
G01 X29.3024 Y-27.3433 F50.00
G01 X29.2931 Y-27.3606 F50.00
G01 X29.2807 Y-27.3757 F50.00
G01 X29.2656 Y-27.3881 F50.00
G01 X29.2483 Y-27.3974 F50.00
G01 X29.2295 Y-27.4031 F50.00
G01 X29.2100 Y-27.4050 F50.00
G01 X29.1905 Y-27.4031 F50.00
G01 X29.1717 Y-27.3974 F50.00
G01 X29.1544 Y-27.3881 F50.00
G01 X29.1393 Y-27.3757 F50.00
G01 X29.1269 Y-27.3606 F50.00
G01 X29.1176 Y-27.3433 F50.00
G01 X29.1119 Y-27.3245 F50.00
G01 X29.1100 Y-27.3050 F50.00
G01 X29.1119 Y-27.2855 F50.00
G01 X29.1176 Y-27.2667 F50.00
G01 X29.1269 Y-27.2494 F50.00
G01 X29.1393 Y-27.2343 F50.00
G01 X29.1544 Y-27.2219 F50.00
G01 X29.1717 Y-27.2126 F50.00
G01 X29.1905 Y-27.2069 F50.00
G01 X29.2100 Y-27.2050 F50.00
G01 X29.2295 Y-27.2069 F50.00
G01 X29.2483 Y-27.2126 F50.00
G01 X29.2656 Y-27.2219 F50.00
G01 X29.2807 Y-27.2343 F50.00
G01 X29.2931 Y-27.2494 F50.00
G01 X29.3024 Y-27.2667 F50.00
G01 X29.3081 Y-27.2855 F50.00
G01 X29.3100 Y-27.3050 F50.00
G00 Z2.5400
G00 X29.3100 Y-29.8450
G01 F50.00
G01 Z-2.0000
G01 F50.00
G01 X29.3081 Y-29.8645 F50.00
G01 X29.3024 Y-29.8833 F50.00
G01 X29.2931 Y-29.9006 F50.00
G01 X29.2807 Y-29.9157 F50.00
G01 X29.2656 Y-29.9281 F50.00
G01 X29.2483 Y-29.9374 F50.00
G01 X29.2295 Y-29.9431 F50.00
G01 X29.2100 Y-29.9450 F50.00
G01 X29.1905 Y-29.9431 F50.00
G01 X29.1717 Y-29.9374 F50.00
G01 X29.1544 Y-29.9281 F50.00
G01 X29.1393 Y-29.9157 F50.00
G01 X29.1269 Y-29.9006 F50.00
G01 X29.1176 Y-29.8833 F50.00
G01 X29.1119 Y-29.8645 F50.00
G01 X29.1100 Y-29.8450 F50.00
G01 X29.1119 Y-29.8255 F50.00
G01 X29.1176 Y-29.8067 F50.00
G01 X29.1269 Y-29.7894 F50.00
G01 X29.1393 Y-29.7743 F50.00
G01 X29.1544 Y-29.7619 F50.00
G01 X29.1717 Y-29.7526 F50.00
G01 X29.1905 Y-29.7469 F50.00
G01 X29.2100 Y-29.7450 F50.00
G01 X29.2295 Y-29.7469 F50.00
G01 X29.2483 Y-29.7526 F50.00
G01 X29.2656 Y-29.7619 F50.00
G01 X29.2807 Y-29.7743 F50.00
G01 X29.2931 Y-29.7894 F50.00
G01 X29.3024 Y-29.8067 F50.00
G01 X29.3081 Y-29.8255 F50.00
G01 X29.3100 Y-29.8450 F50.00
G00 Z2.5400
G00 X29.3100 Y-32.3850
G01 F50.00
G01 Z-2.0000
G01 F50.00
G01 X29.3081 Y-32.4045 F50.00
G01 X29.3024 Y-32.4233 F50.00
G01 X29.2931 Y-32.4406 F50.00
G01 X29.2807 Y-32.4557 F50.00
G01 X29.2656 Y-32.4681 F50.00
G01 X29.2483 Y-32.4774 F50.00
G01 X29.2295 Y-32.4831 F50.00
G01 X29.2100 Y-32.4850 F50.00
G01 X29.1905 Y-32.4831 F50.00
G01 X29.1717 Y-32.4774 F50.00
G01 X29.1544 Y-32.4681 F50.00
G01 X29.1393 Y-32.4557 F50.00
G01 X29.1269 Y-32.4406 F50.00
G01 X29.1176 Y-32.4233 F50.00
G01 X29.1119 Y-32.4045 F50.00
G01 X29.1100 Y-32.3850 F50.00
G01 X29.1119 Y-32.3655 F50.00
G01 X29.1176 Y-32.3467 F50.00
G01 X29.1269 Y-32.3294 F50.00
G01 X29.1393 Y-32.3143 F50.00
G01 X29.1544 Y-32.3019 F50.00
G01 X29.1717 Y-32.2926 F50.00
G01 X29.1905 Y-32.2869 F50.00
G01 X29.2100 Y-32.2850 F50.00
G01 X29.2295 Y-32.2869 F50.00
G01 X29.2483 Y-32.2926 F50.00
G01 X29.2656 Y-32.3019 F50.00
G01 X29.2807 Y-32.3143 F50.00
G01 X29.2931 Y-32.3294 F50.00
G01 X29.3024 Y-32.3467 F50.00
G01 X29.3081 Y-32.3655 F50.00
G01 X29.3100 Y-32.3850 F50.00
G00 Z2.5400
G00 X29.3100 Y-34.9250
G01 F50.00
G01 Z-2.0000
G01 F50.00
G01 X29.3081 Y-34.9445 F50.00
G01 X29.3024 Y-34.9633 F50.00
G01 X29.2931 Y-34.9806 F50.00
G01 X29.2807 Y-34.9957 F50.00
G01 X29.2656 Y-35.0081 F50.00
G01 X29.2483 Y-35.0174 F50.00
G01 X29.2295 Y-35.0231 F50.00
G01 X29.2100 Y-35.0250 F50.00
G01 X29.1905 Y-35.0231 F50.00
G01 X29.1717 Y-35.0174 F50.00
G01 X29.1544 Y-35.0081 F50.00
G01 X29.1393 Y-34.9957 F50.00
G01 X29.1269 Y-34.9806 F50.00
G01 X29.1176 Y-34.9633 F50.00
G01 X29.1119 Y-34.9445 F50.00
G01 X29.1100 Y-34.9250 F50.00
G01 X29.1119 Y-34.9055 F50.00
G01 X29.1176 Y-34.8867 F50.00
G01 X29.1269 Y-34.8694 F50.00
G01 X29.1393 Y-34.8543 F50.00
G01 X29.1544 Y-34.8419 F50.00
G01 X29.1717 Y-34.8326 F50.00
G01 X29.1905 Y-34.8269 F50.00
G01 X29.2100 Y-34.8250 F50.00
G01 X29.2295 Y-34.8269 F50.00
G01 X29.2483 Y-34.8326 F50.00
G01 X29.2656 Y-34.8419 F50.00
G01 X29.2807 Y-34.8543 F50.00
G01 X29.2931 Y-34.8694 F50.00
G01 X29.3024 Y-34.8867 F50.00
G01 X29.3081 Y-34.9055 F50.00
G01 X29.3100 Y-34.9250 F50.00
G00 Z2.5400
G00 X29.3100 Y-37.4650
G01 F50.00
G01 Z-2.0000
G01 F50.00
G01 X29.3081 Y-37.4845 F50.00
G01 X29.3024 Y-37.5033 F50.00
G01 X29.2931 Y-37.5206 F50.00
G01 X29.2807 Y-37.5357 F50.00
G01 X29.2656 Y-37.5481 F50.00
G01 X29.2483 Y-37.5574 F50.00
G01 X29.2295 Y-37.5631 F50.00
G01 X29.2100 Y-37.5650 F50.00
G01 X29.1905 Y-37.5631 F50.00
G01 X29.1717 Y-37.5574 F50.00
G01 X29.1544 Y-37.5481 F50.00
G01 X29.1393 Y-37.5357 F50.00
G01 X29.1269 Y-37.5206 F50.00
G01 X29.1176 Y-37.5033 F50.00
G01 X29.1119 Y-37.4845 F50.00
G01 X29.1100 Y-37.4650 F50.00
G01 X29.1119 Y-37.4455 F50.00
G01 X29.1176 Y-37.4267 F50.00
G01 X29.1269 Y-37.4094 F50.00
G01 X29.1393 Y-37.3943 F50.00
G01 X29.1544 Y-37.3819 F50.00
G01 X29.1717 Y-37.3726 F50.00
G01 X29.1905 Y-37.3669 F50.00
G01 X29.2100 Y-37.3650 F50.00
G01 X29.2295 Y-37.3669 F50.00
G01 X29.2483 Y-37.3726 F50.00
G01 X29.2656 Y-37.3819 F50.00
G01 X29.2807 Y-37.3943 F50.00
G01 X29.2931 Y-37.4094 F50.00
G01 X29.3024 Y-37.4267 F50.00
G01 X29.3081 Y-37.4455 F50.00
G01 X29.3100 Y-37.4650 F50.00
G00 Z2.5400
G00 X29.3100 Y-24.7650
G01 F50.00
G01 Z-2.0000
G01 F50.00
G01 X29.3081 Y-24.7845 F50.00
G01 X29.3024 Y-24.8033 F50.00
G01 X29.2931 Y-24.8206 F50.00
G01 X29.2807 Y-24.8357 F50.00
G01 X29.2656 Y-24.8481 F50.00
G01 X29.2483 Y-24.8574 F50.00
G01 X29.2295 Y-24.8631 F50.00
G01 X29.2100 Y-24.8650 F50.00
G01 X29.1905 Y-24.8631 F50.00
G01 X29.1717 Y-24.8574 F50.00
G01 X29.1544 Y-24.8481 F50.00
G01 X29.1393 Y-24.8357 F50.00
G01 X29.1269 Y-24.8206 F50.00
G01 X29.1176 Y-24.8033 F50.00
G01 X29.1119 Y-24.7845 F50.00
G01 X29.1100 Y-24.7650 F50.00
G01 X29.1119 Y-24.7455 F50.00
G01 X29.1176 Y-24.7267 F50.00
G01 X29.1269 Y-24.7094 F50.00
G01 X29.1393 Y-24.6943 F50.00
G01 X29.1544 Y-24.6819 F50.00
G01 X29.1717 Y-24.6726 F50.00
G01 X29.1905 Y-24.6669 F50.00
G01 X29.2100 Y-24.6650 F50.00
G01 X29.2295 Y-24.6669 F50.00
G01 X29.2483 Y-24.6726 F50.00
G01 X29.2656 Y-24.6819 F50.00
G01 X29.2807 Y-24.6943 F50.00
G01 X29.2931 Y-24.7094 F50.00
G01 X29.3024 Y-24.7267 F50.00
G01 X29.3081 Y-24.7455 F50.00
G01 X29.3100 Y-24.7650 F50.00
G00 Z2.5400
M05
G00 Z2.5400
G00 Z50.80
G00 X0.0 Y0.0

M02