(G-CODE GENERATED BY FLATCAM v8.913 - www.flatcam.org - Version Date: 2019/04/13)

(Name: pic_beeper-PTH.drl_cnc)
(Type: G-code from Excellon)
(Units: MM)

(Created on Monday, 06 May 2019 at 11:55)

(Feedrate: 50.0 mm/min)
(Feedrate rapids 76.2 mm/min)

(Z_Cut: -2.0 mm)
(Z_Move: 2.54 mm)
(Z Toolchange: 25.4 mm)
(X,Y Toolchange: 0.0000, 0.0000 mm)
(Z Start: None mm)
(Z End: 50.8 mm)
(Steps per circle: 64)
(Postprocessor Excellon: grbl_11)
(X range:    3.3300 ...   29.7100  mm)
(Y range:  -37.9650 ...   -3.3300  mm)

(Spindle Speed: 20000.0 RPM)


G21
G90
G94
G17

G01 F50.00
G00 Z2.5400

M03 S20000
G4 P1.0
G00 X4.6050 Y-13.3350
G01 Z-2.0000
G01 Z0
G00 Z2.5400
G00 X24.6050 Y-13.3350
G01 Z-2.0000
G01 Z0
G00 Z2.5400
G00 X10.1600 Y-36.8300
G01 Z-2.0000
G01 Z0
G00 Z2.5400
G00 X7.6200 Y-36.8300
G01 Z-2.0000
G01 Z0
G00 Z2.5400
G00 X5.0800 Y-36.8300
G01 Z-2.0000
G01 Z0
G00 Z2.5400
M05
G00 Z50.80
G00 X0.0 Y0.0

M02