(G-CODE GENERATED BY FLATCAM v8.913 - www.flatcam.org - Version Date: 2019/04/13)

(Name: pic_beeper-F.Cu.gbr_iso_cnc)
(Type: G-code from Geometry)
(Units: MM)

(Created on Sunday, 05 May 2019 at 23:47)

(TOOL DIAMETER: 0.18 mm)

(Feedrate: 200.0 mm/min)
(Feedrate_Z: 100.0 mm/min)
(Feedrate rapids 76.2 mm/min)

(Z_Cut: -0.1 mm)
(Z_Move: 2.54 mm)
(Z Toolchange: 25.4 mm)
(X,Y Toolchange: 0.0000, 0.0000 mm)
(Z Start: None mm)
(Z End: 50.8 mm)
(Steps per circle: 64)
(Postprocessor Geometry: grbl_11)

(X range:    0.4929 ...   32.5271  mm)
(Y range:  -40.1471 ...   -0.4929  mm)

(Spindle Speed: 20000 RPM)


G21
G90
G94
G17

G01 F200.00
G00 Z2.5400

M03 S20000
G4 P1.0
G00 X2.7983 Y-2.3118
G01 F100.00
G01 Z-0.1000
G01 F200.00
G01 X2.8457 Y-2.2702 F200.00
G01 X3.1658 Y-2.0431 F200.00
G01 X3.1744 Y-2.0377 F200.00
G01 X3.5224 Y-1.8455 F200.00
G01 X3.8943 Y-1.6915 F200.00
G01 X4.2763 Y-1.5813 F200.00
G01 X4.2861 Y-1.5790 F200.00
G01 X4.6780 Y-1.5126 F200.00
G01 X5.0750 Y-1.4901 F200.00
G01 X5.0850 Y-1.4901 F200.00
G01 X5.4769 Y-1.5121 F200.00
G01 X5.4870 Y-1.5133 F200.00
G01 X5.8789 Y-1.5800 F200.00
G01 X6.2657 Y-1.6915 F200.00
G01 X6.6376 Y-1.8455 F200.00
G01 X6.9856 Y-2.0377 F200.00
G01 X6.9942 Y-2.0431 F200.00
G01 X7.3143 Y-2.2702 F200.00
G01 X7.3617 Y-2.3118 F200.00
G01 X7.5697 Y-2.1037 F200.00
G01 X7.3167 Y-1.7735 F200.00
G01 X5.8951 Y-1.1694 F200.00
G01 X4.3365 Y-1.1551 F200.00
G01 X2.8718 Y-1.7462 F200.00
G01 X2.8562 Y-1.7566 F200.00
G01 X2.5903 Y-2.1037 F200.00
G01 X2.7983 Y-2.3118 F200.00
G00 Z2.5400
G00 X2.3118 Y-2.7983
G01 F100.00
G01 Z-0.1000
G01 F200.00
G01 X2.1037 Y-2.5903 F200.00
G01 X1.7735 Y-2.8433 F200.00
G01 X1.1694 Y-4.2649 F200.00
G01 X1.1551 Y-5.8235 F200.00
G01 X1.7462 Y-7.2882 F200.00
G01 X1.7566 Y-7.3038 F200.00
G01 X2.1037 Y-7.5697 F200.00
G01 X2.3118 Y-7.3617 F200.00
G01 X2.2702 Y-7.3143 F200.00
G01 X2.0431 Y-6.9942 F200.00
G01 X2.0377 Y-6.9856 F200.00
G01 X1.8455 Y-6.6376 F200.00
G01 X1.6915 Y-6.2657 F200.00
G01 X1.5800 Y-5.8789 F200.00
G01 X1.5133 Y-5.4870 F200.00
G01 X1.5121 Y-5.4769 F200.00
G01 X1.4901 Y-5.0850 F200.00
G01 X1.4901 Y-5.0750 F200.00
G01 X1.5126 Y-4.6780 F200.00
G01 X1.5790 Y-4.2861 F200.00
G01 X1.5813 Y-4.2763 F200.00
G01 X1.6915 Y-3.8943 F200.00
G01 X1.8455 Y-3.5224 F200.00
G01 X2.0377 Y-3.1744 F200.00
G01 X2.0431 Y-3.1658 F200.00
G01 X2.2702 Y-2.8457 F200.00
G01 X2.3118 Y-2.7983 F200.00
G00 Z2.5400
G00 X0.4929 Y-5.2613
G01 F100.00
G01 Z-0.1000
G01 F200.00
G01 X0.4930 Y-35.3744 F200.00
G01 X0.4951 Y-35.4014 F200.00
G01 X0.5000 Y-35.4263 F200.00
G01 X0.5173 Y-35.5317 F200.00
G01 X0.5667 Y-36.2045 F200.00
G01 X0.5707 Y-36.2322 F200.00
G01 X0.7536 Y-36.9956 F200.00
G01 X0.7590 Y-37.0142 F200.00
G01 X0.7660 Y-37.0322 F200.00
G01 X1.0762 Y-37.7391 F200.00
G01 X1.0848 Y-37.7564 F200.00
G01 X1.0948 Y-37.7729 F200.00
G01 X1.5254 Y-38.4136 F200.00
G01 X1.5369 Y-38.4292 F200.00
G01 X1.5483 Y-38.4422 F200.00
G01 X2.0869 Y-38.9980 F200.00
G01 X2.1010 Y-39.0112 F200.00
G01 X2.1161 Y-39.0232 F200.00
G01 X2.7430 Y-39.4737 F200.00
G01 X2.7592 Y-39.4842 F200.00
G01 X2.7763 Y-39.4933 F200.00
G01 X3.4748 Y-39.8265 F200.00
G01 X3.4908 Y-39.8332 F200.00
G01 X3.5092 Y-39.8391 F200.00
G01 X4.2538 Y-40.0428 F200.00
G01 X4.2726 Y-40.0471 F200.00
G01 X4.2918 Y-40.0497 F200.00
G01 X5.1198 Y-40.1236 F200.00
G01 X5.1816 Y-40.1327 F200.00
G01 X5.2006 Y-40.1384 F200.00
G01 X5.2234 Y-40.1437 F200.00
G01 X5.2401 Y-40.1460 F200.00
G01 X5.2569 Y-40.1470 F200.00
G01 X27.7544 Y-40.1470 F200.00
G01 X27.7814 Y-40.1449 F200.00
G01 X27.8063 Y-40.1400 F200.00
G01 X27.9117 Y-40.1227 F200.00
G01 X28.5845 Y-40.0733 F200.00
G01 X28.6122 Y-40.0693 F200.00
G01 X29.3776 Y-39.8859 F200.00
G01 X29.3942 Y-39.8810 F200.00
G01 X29.4122 Y-39.8740 F200.00
G01 X29.6976 Y-39.7488 F200.00
G01 X29.7196 Y-39.7376 F200.00
G01 X29.7360 Y-39.7269 F200.00
G01 X29.7590 Y-39.7081 F200.00
G01 X29.7726 Y-39.6941 F200.00
G01 X29.7792 Y-39.6863 F200.00
G01 X29.7936 Y-39.6662 F200.00
G01 X29.8034 Y-39.6493 F200.00
G01 X29.8134 Y-39.6268 F200.00
G01 X29.8208 Y-39.6032 F200.00
G01 X29.8255 Y-39.5790 F200.00
G01 X29.8274 Y-39.5545 F200.00
G01 X29.8265 Y-39.5298 F200.00
G01 X29.8228 Y-39.5054 F200.00
G01 X29.8178 Y-39.4865 F200.00
G01 X29.8073 Y-39.4587 F200.00
G01 X29.7982 Y-39.4414 F200.00
G01 X29.7847 Y-39.4208 F200.00
G01 X29.7784 Y-39.4127 F200.00
G01 X29.7654 Y-39.3981 F200.00
G01 X29.7472 Y-39.3815 F200.00
G01 X29.7272 Y-39.3671 F200.00
G01 X29.7057 Y-39.3550 F200.00
G01 X29.6829 Y-39.3454 F200.00
G01 X29.6593 Y-39.3385 F200.00
G01 X29.6350 Y-39.3343 F200.00
G01 X29.6129 Y-39.3330 F200.00
G01 X18.9597 Y-39.3329 F200.00
G01 X18.9341 Y-39.3345 F200.00
G01 X18.9196 Y-39.3367 F200.00
G01 X18.8775 Y-39.3450 F200.00
G01 X18.6364 Y-39.2971 F200.00
G01 X18.4320 Y-39.1605 F200.00
G01 X18.4081 Y-39.1249 F200.00
G01 X18.3994 Y-39.1131 F200.00
G01 X18.3824 Y-39.0938 F200.00
G01 X17.5492 Y-38.2606 F200.00
G01 X17.5310 Y-38.2443 F200.00
G01 X17.5154 Y-38.2331 F200.00
G01 X17.4899 Y-38.2185 F200.00
G01 X17.4626 Y-38.2076 F200.00
G01 X17.4440 Y-38.2024 F200.00
G01 X17.4200 Y-38.1984 F200.00
G01 X17.3957 Y-38.1970 F200.00
G01 X17.2567 Y-38.1970 F200.00
G01 X16.9886 Y-38.1436 F200.00
G01 X16.8622 Y-38.0592 F200.00
G01 X16.8408 Y-38.0466 F200.00
G01 X16.8180 Y-38.0365 F200.00
G01 X16.7943 Y-38.0291 F200.00
G01 X16.7699 Y-38.0245 F200.00
G01 X16.7503 Y-38.0229 F200.00
G01 X16.7203 Y-38.0237 F200.00
G01 X16.6958 Y-38.0275 F200.00
G01 X16.6718 Y-38.0341 F200.00
G01 X16.6488 Y-38.0434 F200.00
G01 X16.6270 Y-38.0553 F200.00
G01 X16.6066 Y-38.0696 F200.00
G01 X16.5899 Y-38.0844 F200.00
G01 X16.5534 Y-38.1209 F200.00
G01 X16.3997 Y-38.1845 F200.00
G01 X16.2548 Y-38.1845 F200.00
G01 X16.2232 Y-38.1530 F200.00
G01 X16.2232 Y-37.8298 F200.00
G01 X16.2434 Y-37.8202 F200.00
G01 X16.2657 Y-37.8069 F200.00
G01 X16.2902 Y-37.7892 F200.00
G01 X16.3162 Y-37.7662 F200.00
G01 X16.3365 Y-37.7437 F200.00
G01 X16.3569 Y-37.7157 F200.00
G01 X16.3702 Y-37.6934 F200.00
G01 X16.3813 Y-37.6701 F200.00
G01 X16.3933 Y-37.6375 F200.00
G01 X16.4014 Y-37.6037 F200.00
G01 X16.4051 Y-37.5781 F200.00
G01 X16.4066 Y-37.5479 F200.00
G01 X16.4066 Y-37.0354 F200.00
G01 X16.4055 Y-37.0095 F200.00
G01 X16.4007 Y-36.9751 F200.00
G01 X16.3945 Y-36.9500 F200.00
G01 X16.3813 Y-36.9132 F200.00
G01 X16.3702 Y-36.8898 F200.00
G01 X16.3546 Y-36.8638 F200.00
G01 X16.3365 Y-36.8395 F200.00
G01 X16.3162 Y-36.8170 F200.00
G01 X16.2937 Y-36.7967 F200.00
G01 X16.2694 Y-36.7786 F200.00
G01 X16.2434 Y-36.7631 F200.00
G01 X16.2201 Y-36.7519 F200.00
G01 X16.1832 Y-36.7387 F200.00
G01 X16.1581 Y-36.7325 F200.00
G01 X16.1281 Y-36.7281 F200.00
G01 X16.0979 Y-36.7266 F200.00
G01 X15.6582 Y-36.7266 F200.00
G01 X15.6257 Y-36.7286 F200.00
G01 X15.6001 Y-36.7325 F200.00
G01 X15.5750 Y-36.7387 F200.00
G01 X15.5422 Y-36.7501 F200.00
G01 X15.5148 Y-36.7631 F200.00
G01 X15.4888 Y-36.7786 F200.00
G01 X15.4611 Y-36.7996 F200.00
G01 X15.4390 Y-36.8202 F200.00
G01 X15.4217 Y-36.8395 F200.00
G01 X15.4062 Y-36.8602 F200.00
G01 X15.3881 Y-36.8898 F200.00
G01 X15.3751 Y-36.9172 F200.00
G01 X15.3649 Y-36.9457 F200.00
G01 X15.3575 Y-36.9751 F200.00
G01 X15.3531 Y-37.0051 F200.00
G01 X15.3516 Y-37.0332 F200.00
G01 X15.3516 Y-37.5479 F200.00
G01 X15.3531 Y-37.5781 F200.00
G01 X15.3585 Y-37.6124 F200.00
G01 X15.3649 Y-37.6375 F200.00
G01 X15.3735 Y-37.6619 F200.00
G01 X15.3881 Y-37.6934 F200.00
G01 X15.4062 Y-37.7230 F200.00
G01 X15.4217 Y-37.7437 F200.00
G01 X15.4390 Y-37.7630 F200.00
G01 X15.4645 Y-37.7865 F200.00
G01 X15.4926 Y-37.8069 F200.00
G01 X15.5148 Y-37.8202 F200.00
G01 X15.5350 Y-37.8298 F200.00
G01 X15.5350 Y-38.1530 F200.00
G01 X15.5035 Y-38.1845 F200.00
G01 X15.3585 Y-38.1845 F200.00
G01 X15.2049 Y-38.1209 F200.00
G01 X15.0873 Y-38.0034 F200.00
G01 X15.0237 Y-37.8497 F200.00
G01 X15.0237 Y-37.6413 F200.00
G01 X15.0228 Y-37.6223 F200.00
G01 X15.0194 Y-37.5986 F200.00
G01 X15.0172 Y-37.5889 F200.00
G01 X15.0119 Y-37.5706 F200.00
G01 X15.0028 Y-37.5484 F200.00
G01 X14.9887 Y-37.5232 F200.00
G01 X14.9777 Y-37.5077 F200.00
G01 X14.9653 Y-37.4933 F200.00
G01 X14.9443 Y-37.4735 F200.00
G01 X14.9250 Y-37.4593 F200.00
G01 X14.9042 Y-37.4474 F200.00
G01 X14.8775 Y-37.4362 F200.00
G01 X14.8594 Y-37.4307 F200.00
G01 X14.8407 Y-37.4270 F200.00
G01 X14.8169 Y-37.4245 F200.00
G01 X14.7880 Y-37.4250 F200.00
G01 X14.7667 Y-37.4279 F200.00
G01 X14.6050 Y-37.4600 F200.00
G01 X14.5629 Y-37.4517 F200.00
G01 X14.5484 Y-37.4495 F200.00
G01 X14.5228 Y-37.4479 F200.00
G01 X11.3007 Y-37.4479 F200.00
G01 X11.2764 Y-37.4493 F200.00
G01 X11.2475 Y-37.4546 F200.00
G01 X11.2290 Y-37.4601 F200.00
G01 X11.2111 Y-37.4674 F200.00
G01 X11.1852 Y-37.4812 F200.00
G01 X11.1615 Y-37.4985 F200.00
G01 X11.1472 Y-37.5115 F200.00
G01 X10.8284 Y-37.8303 F200.00
G01 X10.3947 Y-38.0099 F200.00
G01 X9.9253 Y-38.0099 F200.00
G01 X9.4916 Y-37.8303 F200.00
G01 X9.1597 Y-37.4984 F200.00
G01 X9.0885 Y-37.3268 F200.00
G01 X9.0800 Y-37.3095 F200.00
G01 X9.0698 Y-37.2931 F200.00
G01 X9.0519 Y-37.2698 F200.00
G01 X9.0346 Y-37.2526 F200.00
G01 X9.0156 Y-37.2375 F200.00
G01 X8.9950 Y-37.2245 F200.00
G01 X8.9777 Y-37.2160 F200.00
G01 X8.9549 Y-37.2074 F200.00
G01 X8.9452 Y-37.2046 F200.00
G01 X8.9264 Y-37.2005 F200.00
G01 X8.9022 Y-37.1978 F200.00
G01 X8.8778 Y-37.1978 F200.00
G01 X8.8536 Y-37.2005 F200.00
G01 X8.8299 Y-37.2059 F200.00
G01 X8.8069 Y-37.2139 F200.00
G01 X8.7850 Y-37.2245 F200.00
G01 X8.7644 Y-37.2375 F200.00
G01 X8.7454 Y-37.2526 F200.00
G01 X8.7316 Y-37.2662 F200.00
G01 X8.7249 Y-37.2737 F200.00
G01 X8.7102 Y-37.2931 F200.00
G01 X8.7000 Y-37.3095 F200.00
G01 X8.6915 Y-37.3268 F200.00
G01 X8.6203 Y-37.4984 F200.00
G01 X8.2884 Y-37.8303 F200.00
G01 X7.8547 Y-38.0099 F200.00
G01 X7.3853 Y-38.0099 F200.00
G01 X6.9516 Y-37.8303 F200.00
G01 X6.6197 Y-37.4984 F200.00
G01 X6.5485 Y-37.3268 F200.00
G01 X6.5400 Y-37.3095 F200.00
G01 X6.5298 Y-37.2931 F200.00
G01 X6.5119 Y-37.2698 F200.00
G01 X6.4908 Y-37.2494 F200.00
G01 X6.4756 Y-37.2375 F200.00
G01 X6.4550 Y-37.2245 F200.00
G01 X6.4331 Y-37.2139 F200.00
G01 X6.4149 Y-37.2074 F200.00
G01 X6.4052 Y-37.2046 F200.00
G01 X6.3814 Y-37.1998 F200.00
G01 X6.3622 Y-37.1978 F200.00
G01 X6.3378 Y-37.1978 F200.00
G01 X6.3136 Y-37.2005 F200.00
G01 X6.2899 Y-37.2059 F200.00
G01 X6.2669 Y-37.2139 F200.00
G01 X6.2450 Y-37.2245 F200.00
G01 X6.2244 Y-37.2375 F200.00
G01 X6.2017 Y-37.2561 F200.00
G01 X6.1881 Y-37.2698 F200.00
G01 X6.1760 Y-37.2848 F200.00
G01 X6.1626 Y-37.3051 F200.00
G01 X6.1577 Y-37.3140 F200.00
G01 X6.1495 Y-37.3314 F200.00
G01 X6.0803 Y-37.4984 F200.00
G01 X5.7484 Y-37.8303 F200.00
G01 X5.3147 Y-38.0099 F200.00
G01 X4.8453 Y-38.0099 F200.00
G01 X4.4116 Y-37.8303 F200.00
G01 X4.0797 Y-37.4984 F200.00
G01 X3.9001 Y-37.0647 F200.00
G01 X3.9001 Y-36.5953 F200.00
G01 X4.0797 Y-36.1616 F200.00
G01 X4.4116 Y-35.8297 F200.00
G01 X4.8453 Y-35.6501 F200.00
G01 X5.0421 Y-35.6501 F200.00
G01 X5.0614 Y-35.6491 F200.00
G01 X5.0855 Y-35.6456 F200.00
G01 X5.0953 Y-35.6434 F200.00
G01 X5.1138 Y-35.6379 F200.00
G01 X5.1363 Y-35.6286 F200.00
G01 X5.1618 Y-35.6140 F200.00
G01 X5.1775 Y-35.6027 F200.00
G01 X5.1920 Y-35.5900 F200.00
G01 X5.2118 Y-35.5683 F200.00
G01 X5.2259 Y-35.5485 F200.00
G01 X5.2377 Y-35.5272 F200.00
G01 X5.2485 Y-35.4999 F200.00
G01 X5.2538 Y-35.4813 F200.00
G01 X5.2571 Y-35.4623 F200.00
G01 X5.2592 Y-35.4330 F200.00
G01 X5.2578 Y-35.4087 F200.00
G01 X5.2547 Y-35.3897 F200.00
G01 X5.2525 Y-35.3798 F200.00
G01 X5.2452 Y-35.3566 F200.00
G01 X5.2377 Y-35.3388 F200.00
G01 X5.2259 Y-35.3175 F200.00
G01 X5.2118 Y-35.2977 F200.00
G01 X5.1974 Y-35.2813 F200.00
G01 X4.2262 Y-34.3101 F200.00
G01 X4.2069 Y-34.2931 F200.00
G01 X4.1951 Y-34.2844 F200.00
G01 X4.1595 Y-34.2605 F200.00
G01 X4.0229 Y-34.0561 F200.00
G01 X3.9750 Y-33.8150 F200.00
G01 X3.9833 Y-33.7729 F200.00
G01 X3.9855 Y-33.7584 F200.00
G01 X3.9871 Y-33.7328 F200.00
G01 X3.9870 Y-14.4731 F200.00
G01 X3.9857 Y-14.4514 F200.00
G01 X3.9826 Y-14.4323 F200.00
G01 X3.9749 Y-14.4040 F200.00
G01 X3.9656 Y-14.3815 F200.00
G01 X3.9564 Y-14.3645 F200.00
G01 X3.9397 Y-14.3403 F200.00
G01 X3.9235 Y-14.3222 F200.00
G01 X3.6047 Y-14.0034 F200.00
G01 X3.4251 Y-13.5697 F200.00
G01 X3.4251 Y-13.1003 F200.00
G01 X3.6047 Y-12.6666 F200.00
G01 X3.9366 Y-12.3347 F200.00
G01 X4.3703 Y-12.1551 F200.00
G01 X4.8397 Y-12.1551 F200.00
G01 X5.2734 Y-12.3347 F200.00
G01 X5.4470 Y-12.5083 F200.00
G01 X5.6053 Y-12.6666 F200.00
G01 X5.7849 Y-13.1003 F200.00
G01 X5.7849 Y-13.5697 F200.00
G01 X5.6053 Y-14.0034 F200.00
G01 X5.2865 Y-14.3222 F200.00
G01 X5.2703 Y-14.3403 F200.00
G01 X5.2536 Y-14.3645 F200.00
G01 X5.2444 Y-14.3815 F200.00
G01 X5.2369 Y-14.3992 F200.00
G01 X5.2284 Y-14.4274 F200.00
G01 X5.2239 Y-14.4564 F200.00
G01 X5.2229 Y-14.4757 F200.00
G01 X5.2229 Y-21.5573 F200.00
G01 X5.2243 Y-21.5814 F200.00
G01 X5.2283 Y-21.6053 F200.00
G01 X5.2350 Y-21.6285 F200.00
G01 X5.2421 Y-21.6463 F200.00
G01 X5.2465 Y-21.6554 F200.00
G01 X5.2586 Y-21.6763 F200.00
G01 X5.2697 Y-21.6919 F200.00
G01 X5.2858 Y-21.7100 F200.00
G01 X5.3037 Y-21.7262 F200.00
G01 X5.3192 Y-21.7375 F200.00
G01 X5.3400 Y-21.7498 F200.00
G01 X5.3490 Y-21.7543 F200.00
G01 X5.3667 Y-21.7616 F200.00
G01 X5.3899 Y-21.7685 F200.00
G01 X5.4137 Y-21.7727 F200.00
G01 X5.4329 Y-21.7741 F200.00
G01 X5.4620 Y-21.7732 F200.00
G01 X5.4908 Y-21.7682 F200.00
G01 X5.5092 Y-21.7630 F200.00
G01 X5.5271 Y-21.7560 F200.00
G01 X5.5530 Y-21.7426 F200.00
G01 X5.5729 Y-21.7289 F200.00
G01 X5.5947 Y-21.7094 F200.00
G01 X5.6076 Y-21.6952 F200.00
G01 X5.6191 Y-21.6798 F200.00
G01 X5.6340 Y-21.6547 F200.00
G01 X5.6464 Y-21.6249 F200.00
G01 X6.0116 Y-21.4736 F200.00
G01 X6.5794 Y-21.4526 F200.00
G01 X7.0552 Y-21.6294 F200.00
G01 X7.0711 Y-21.6723 F200.00
G01 X6.8376 Y-21.9059 F200.00
G01 X6.8183 Y-21.8959 F200.00
G01 X6.7100 Y-21.8512 F200.00
G01 X6.5925 Y-21.8173 F200.00
G01 X6.4720 Y-21.7969 F200.00
G01 X6.3500 Y-21.7900 F200.00
G01 X6.2280 Y-21.7969 F200.00
G01 X6.1075 Y-21.8173 F200.00
G01 X5.9900 Y-21.8512 F200.00
G01 X5.8817 Y-21.8959 F200.00
G01 X5.8726 Y-21.9003 F200.00
G01 X5.7701 Y-21.9571 F200.00
G01 X5.6704 Y-22.0278 F200.00
G01 X5.5793 Y-22.1093 F200.00
G01 X5.4978 Y-22.2004 F200.00
G01 X5.4271 Y-22.3001 F200.00
G01 X5.3679 Y-22.4071 F200.00
G01 X5.3212 Y-22.5200 F200.00
G01 X5.2873 Y-22.6375 F200.00
G01 X5.2676 Y-22.7530 F200.00
G01 X5.2664 Y-22.7630 F200.00
G01 X5.2600 Y-22.8800 F200.00
G01 X5.2664 Y-22.9970 F200.00
G01 X5.2676 Y-23.0070 F200.00
G01 X5.2873 Y-23.1225 F200.00
G01 X5.3212 Y-23.2400 F200.00
G01 X5.3659 Y-23.3483 F200.00
G01 X5.3703 Y-23.3574 F200.00
G01 X5.4271 Y-23.4599 F200.00
G01 X5.4948 Y-23.5556 F200.00
G01 X5.5011 Y-23.5635 F200.00
G01 X5.5793 Y-23.6507 F200.00
G01 X5.6704 Y-23.7322 F200.00
G01 X5.7659 Y-23.8001 F200.00
G01 X5.7744 Y-23.8055 F200.00
G01 X5.8771 Y-23.8621 F200.00
G01 X5.9853 Y-23.9070 F200.00
G01 X5.9948 Y-23.9104 F200.00
G01 X6.1075 Y-23.9427 F200.00
G01 X6.2280 Y-23.9631 F200.00
G01 X6.3450 Y-23.9699 F200.00
G01 X6.3550 Y-23.9699 F200.00
G01 X6.4720 Y-23.9631 F200.00
G01 X6.5876 Y-23.9437 F200.00
G01 X6.5974 Y-23.9414 F200.00
G01 X6.7100 Y-23.9088 F200.00
G01 X6.8183 Y-23.8641 F200.00
G01 X6.8376 Y-23.8541 F200.00
G01 X7.0711 Y-24.0877 F200.00
G01 X7.0536 Y-24.1351 F200.00
G01 X6.6884 Y-24.2864 F200.00
G01 X6.1206 Y-24.3074 F200.00
G01 X5.6448 Y-24.1306 F200.00
G01 X5.6340 Y-24.1053 F200.00
G01 X5.6219 Y-24.0843 F200.00
G01 X5.6076 Y-24.0648 F200.00
G01 X5.5875 Y-24.0436 F200.00
G01 X5.5689 Y-24.0282 F200.00
G01 X5.5530 Y-24.0174 F200.00
G01 X5.5362 Y-24.0082 F200.00
G01 X5.5092 Y-23.9970 F200.00
G01 X5.4859 Y-23.9906 F200.00
G01 X5.4570 Y-23.9864 F200.00
G01 X5.4379 Y-23.9857 F200.00
G01 X5.4137 Y-23.9873 F200.00
G01 X5.3899 Y-23.9915 F200.00
G01 X5.3715 Y-23.9968 F200.00
G01 X5.3490 Y-24.0057 F200.00
G01 X5.3400 Y-24.0102 F200.00
G01 X5.3234 Y-24.0197 F200.00
G01 X5.3037 Y-24.0338 F200.00
G01 X5.2858 Y-24.0500 F200.00
G01 X5.2729 Y-24.0643 F200.00
G01 X5.2586 Y-24.0837 F200.00
G01 X5.2533 Y-24.0922 F200.00
G01 X5.2442 Y-24.1091 F200.00
G01 X5.2350 Y-24.1315 F200.00
G01 X5.2273 Y-24.1596 F200.00
G01 X5.2243 Y-24.1786 F200.00
G01 X5.2229 Y-24.2027 F200.00
G01 X5.2229 Y-28.8326 F200.00
G01 X5.2243 Y-28.8569 F200.00
G01 X5.2274 Y-28.8759 F200.00
G01 X5.2296 Y-28.8857 F200.00
G01 X5.2369 Y-28.9090 F200.00
G01 X5.2444 Y-28.9267 F200.00
G01 X5.2562 Y-28.9480 F200.00
G01 X5.2703 Y-28.9679 F200.00
G01 X5.2865 Y-28.9860 F200.00
G01 X5.3047 Y-29.0023 F200.00
G01 X5.3203 Y-29.0135 F200.00
G01 X5.3289 Y-29.0189 F200.00
G01 X5.3504 Y-29.0302 F200.00
G01 X5.3683 Y-29.0374 F200.00
G01 X5.3917 Y-29.0442 F200.00
G01 X5.4157 Y-29.0483 F200.00
G01 X5.4375 Y-29.0496 F200.00
G01 X5.5504 Y-29.0496 F200.00
G01 X5.5727 Y-29.0482 F200.00
G01 X5.5972 Y-29.0440 F200.00
G01 X5.6210 Y-29.0369 F200.00
G01 X5.6439 Y-29.0272 F200.00
G01 X5.6655 Y-29.0150 F200.00
G01 X5.6895 Y-28.9970 F200.00
G01 X5.7038 Y-28.9835 F200.00
G01 X5.7201 Y-28.9647 F200.00
G01 X5.7340 Y-28.9442 F200.00
G01 X5.7433 Y-28.9268 F200.00
G01 X5.7476 Y-28.9174 F200.00
G01 X5.7560 Y-28.8940 F200.00
G01 X5.7602 Y-28.8774 F200.00
G01 X5.7679 Y-28.8389 F200.00
G01 X5.9045 Y-28.6345 F200.00
G01 X5.9401 Y-28.6106 F200.00
G01 X5.9519 Y-28.6019 F200.00
G01 X5.9712 Y-28.5849 F200.00
G01 X8.8299 Y-25.7262 F200.00
G01 X8.8469 Y-25.7069 F200.00
G01 X8.8557 Y-25.6951 F200.00
G01 X8.8795 Y-25.6595 F200.00
G01 X9.0839 Y-25.5229 F200.00
G01 X9.3250 Y-25.4749 F200.00
G01 X9.3671 Y-25.4833 F200.00
G01 X9.3816 Y-25.4855 F200.00
G01 X9.4072 Y-25.4871 F200.00
G01 X21.2478 Y-25.4871 F200.00
G01 X21.2734 Y-25.4855 F200.00
G01 X21.2879 Y-25.4833 F200.00
G01 X21.3300 Y-25.4749 F200.00
G01 X21.5711 Y-25.5229 F200.00
G01 X21.7755 Y-25.6595 F200.00
G01 X21.7993 Y-25.6951 F200.00
G01 X21.8081 Y-25.7069 F200.00
G01 X21.8251 Y-25.7262 F200.00
G01 X22.5361 Y-26.4371 F200.00
G01 X22.5561 Y-26.4544 F200.00
G01 X22.5716 Y-26.4653 F200.00
G01 X22.5881 Y-26.4747 F200.00
G01 X22.6146 Y-26.4863 F200.00
G01 X22.6376 Y-26.4931 F200.00
G01 X22.6612 Y-26.4973 F200.00
G01 X22.6801 Y-26.4987 F200.00
G01 X22.7041 Y-26.4983 F200.00
G01 X22.7140 Y-26.4973 F200.00
G01 X22.7327 Y-26.4942 F200.00
G01 X22.7559 Y-26.4880 F200.00
G01 X22.7782 Y-26.4792 F200.00
G01 X22.7950 Y-26.4705 F200.00
G01 X22.8192 Y-26.4546 F200.00
G01 X22.8374 Y-26.4391 F200.00
G01 X22.8443 Y-26.4320 F200.00
G01 X23.2548 Y-26.1577 F200.00
G01 X23.6100 Y-26.0871 F200.00
G01 X24.6500 Y-26.0871 F200.00
G01 X25.0052 Y-26.1577 F200.00
G01 X25.4081 Y-26.4269 F200.00
G01 X25.6773 Y-26.8298 F200.00
G01 X25.7718 Y-27.3050 F200.00
G01 X25.6773 Y-27.7802 F200.00
G01 X25.4081 Y-28.1831 F200.00
G01 X25.0895 Y-28.3960 F200.00
G01 X25.0717 Y-28.4096 F200.00
G01 X25.0572 Y-28.4232 F200.00
G01 X25.0375 Y-28.4462 F200.00
G01 X25.0238 Y-28.4672 F200.00
G01 X25.0127 Y-28.4896 F200.00
G01 X25.0042 Y-28.5132 F200.00
G01 X24.9984 Y-28.5376 F200.00
G01 X24.9955 Y-28.5625 F200.00
G01 X24.9955 Y-28.5875 F200.00
G01 X24.9984 Y-28.6124 F200.00
G01 X25.0058 Y-28.6417 F200.00
G01 X25.0127 Y-28.6604 F200.00
G01 X25.0214 Y-28.6782 F200.00
G01 X25.0346 Y-28.6995 F200.00
G01 X25.0535 Y-28.7231 F200.00
G01 X25.0717 Y-28.7404 F200.00
G01 X25.0916 Y-28.7555 F200.00
G01 X25.4081 Y-28.9669 F200.00
G01 X25.5174 Y-29.1306 F200.00
G01 X25.5316 Y-29.1495 F200.00
G01 X25.5478 Y-29.1668 F200.00
G01 X25.5658 Y-29.1822 F200.00
G01 X25.5853 Y-29.1956 F200.00
G01 X25.6107 Y-29.2087 F200.00
G01 X25.6282 Y-29.2155 F200.00
G01 X25.6509 Y-29.2219 F200.00
G01 X25.6743 Y-29.2258 F200.00
G01 X25.6955 Y-29.2270 F200.00
G01 X26.3241 Y-29.2271 F200.00
G01 X26.3484 Y-29.2257 F200.00
G01 X26.3724 Y-29.2216 F200.00
G01 X26.3958 Y-29.2149 F200.00
G01 X26.4228 Y-29.2033 F200.00
G01 X26.4396 Y-29.1938 F200.00
G01 X26.4554 Y-29.1827 F200.00
G01 X26.4758 Y-29.1652 F200.00
G01 X27.9047 Y-27.7364 F200.00
G01 X27.9234 Y-27.7149 F200.00
G01 X27.9343 Y-27.6996 F200.00
G01 X27.9436 Y-27.6833 F200.00
G01 X27.9552 Y-27.6572 F200.00
G01 X27.9620 Y-27.6345 F200.00
G01 X27.9656 Y-27.6161 F200.00
G01 X27.9669 Y-27.6064 F200.00
G01 X27.9682 Y-27.5828 F200.00
G01 X27.9674 Y-27.5640 F200.00
G01 X27.9645 Y-27.5430 F200.00
G01 X27.9172 Y-27.3050 F200.00
G01 X28.0156 Y-26.8103 F200.00
G01 X28.2959 Y-26.3909 F200.00
G01 X28.5584 Y-26.2155 F200.00
G01 X28.5773 Y-26.2013 F200.00
G01 X28.5979 Y-26.1815 F200.00
G01 X28.6100 Y-26.1671 F200.00
G01 X28.6207 Y-26.1517 F200.00
G01 X28.6345 Y-26.1267 F200.00
G01 X28.6433 Y-26.1048 F200.00
G01 X28.6497 Y-26.0820 F200.00
G01 X28.6539 Y-26.0537 F200.00
G01 X28.6547 Y-26.0301 F200.00
G01 X28.6535 Y-26.0114 F200.00
G01 X28.6506 Y-25.9928 F200.00
G01 X28.6433 Y-25.9652 F200.00
G01 X28.6345 Y-25.9433 F200.00
G01 X28.6233 Y-25.9224 F200.00
G01 X28.6100 Y-25.9029 F200.00
G01 X28.5911 Y-25.8814 F200.00
G01 X28.5773 Y-25.8687 F200.00
G01 X28.5604 Y-25.8559 F200.00
G01 X28.2959 Y-25.6791 F200.00
G01 X28.0156 Y-25.2597 F200.00
G01 X27.9172 Y-24.7650 F200.00
G01 X28.0156 Y-24.2703 F200.00
G01 X28.2959 Y-23.8509 F200.00
G01 X28.7153 Y-23.5706 F200.00
G01 X29.0851 Y-23.4971 F200.00
G01 X29.3349 Y-23.4971 F200.00
G01 X29.7047 Y-23.5706 F200.00
G01 X30.1241 Y-23.8509 F200.00
G01 X30.4044 Y-24.2703 F200.00
G01 X30.5028 Y-24.7650 F200.00
G01 X30.4044 Y-25.2597 F200.00
G01 X30.1241 Y-25.6791 F200.00
G01 X29.8596 Y-25.8559 F200.00
G01 X29.8427 Y-25.8687 F200.00
G01 X29.8254 Y-25.8849 F200.00
G01 X29.8100 Y-25.9029 F200.00
G01 X29.7967 Y-25.9224 F200.00
G01 X29.7855 Y-25.9433 F200.00
G01 X29.7784 Y-25.9606 F200.00
G01 X29.7715 Y-25.9833 F200.00
G01 X29.7694 Y-25.9928 F200.00
G01 X29.7665 Y-26.0114 F200.00
G01 X29.7652 Y-26.0350 F200.00
G01 X29.7665 Y-26.0586 F200.00
G01 X29.7694 Y-26.0772 F200.00
G01 X29.7752 Y-26.1001 F200.00
G01 X29.7784 Y-26.1094 F200.00
G01 X29.7855 Y-26.1267 F200.00
G01 X29.7967 Y-26.1476 F200.00
G01 X29.8100 Y-26.1671 F200.00
G01 X29.8254 Y-26.1851 F200.00
G01 X29.8427 Y-26.2013 F200.00
G01 X29.8596 Y-26.2141 F200.00
G01 X30.1241 Y-26.3909 F200.00
G01 X30.4044 Y-26.8103 F200.00
G01 X30.5028 Y-27.3050 F200.00
G01 X30.4044 Y-27.7997 F200.00
G01 X30.1241 Y-28.2191 F200.00
G01 X29.8596 Y-28.3959 F200.00
G01 X29.8427 Y-28.4087 F200.00
G01 X29.8254 Y-28.4249 F200.00
G01 X29.8100 Y-28.4429 F200.00
G01 X29.7967 Y-28.4624 F200.00
G01 X29.7855 Y-28.4833 F200.00
G01 X29.7784 Y-28.5006 F200.00
G01 X29.7715 Y-28.5233 F200.00
G01 X29.7694 Y-28.5328 F200.00
G01 X29.7665 Y-28.5514 F200.00
G01 X29.7652 Y-28.5750 F200.00
G01 X29.7665 Y-28.5986 F200.00
G01 X29.7694 Y-28.6172 F200.00
G01 X29.7752 Y-28.6401 F200.00
G01 X29.7784 Y-28.6494 F200.00
G01 X29.7855 Y-28.6667 F200.00
G01 X29.7967 Y-28.6876 F200.00
G01 X29.8100 Y-28.7071 F200.00
G01 X29.8254 Y-28.7251 F200.00
G01 X29.8427 Y-28.7413 F200.00
G01 X29.8596 Y-28.7541 F200.00
G01 X30.1241 Y-28.9309 F200.00
G01 X30.4044 Y-29.3503 F200.00
G01 X30.5028 Y-29.8450 F200.00
G01 X30.4044 Y-30.3397 F200.00
G01 X30.1241 Y-30.7591 F200.00
G01 X29.8409 Y-30.9484 F200.00
G01 X29.8179 Y-30.9662 F200.00
G01 X29.8041 Y-30.9794 F200.00
G01 X29.7885 Y-30.9978 F200.00
G01 X29.7750 Y-31.0178 F200.00
G01 X29.7660 Y-31.0347 F200.00
G01 X29.7568 Y-31.0570 F200.00
G01 X29.7537 Y-31.0665 F200.00
G01 X29.7489 Y-31.0851 F200.00
G01 X29.7451 Y-31.1139 F200.00
G01 X29.7445 Y-31.1330 F200.00
G01 X29.7463 Y-31.1571 F200.00
G01 X29.7508 Y-31.1808 F200.00
G01 X29.7562 Y-31.1992 F200.00
G01 X29.7674 Y-31.2260 F200.00
G01 X29.7768 Y-31.2427 F200.00
G01 X29.7823 Y-31.2511 F200.00
G01 X29.7970 Y-31.2703 F200.00
G01 X29.8100 Y-31.2843 F200.00
G01 X29.8243 Y-31.2969 F200.00
G01 X29.8480 Y-31.3139 F200.00
G01 X29.8693 Y-31.3253 F200.00
G01 X29.9600 Y-31.3679 F200.00
G01 X30.2956 Y-31.7362 F200.00
G01 X30.4119 Y-32.0170 F200.00
G01 X30.3993 Y-32.0409 F200.00
G01 X30.0835 Y-32.0409 F200.00
G01 X30.0569 Y-31.9771 F200.00
G01 X30.0059 Y-31.8849 F200.00
G01 X29.9449 Y-31.7989 F200.00
G01 X29.8747 Y-31.7203 F200.00
G01 X29.7961 Y-31.6501 F200.00
G01 X29.7101 Y-31.5891 F200.00
G01 X29.6179 Y-31.5381 F200.00
G01 X29.5205 Y-31.4977 F200.00
G01 X29.4241 Y-31.4698 F200.00
G01 X29.4142 Y-31.4676 F200.00
G01 X29.3152 Y-31.4509 F200.00
G01 X29.2100 Y-31.4450 F200.00
G01 X29.1048 Y-31.4509 F200.00
G01 X29.0058 Y-31.4676 F200.00
G01 X28.9959 Y-31.4698 F200.00
G01 X28.9043 Y-31.4962 F200.00
G01 X28.8948 Y-31.4996 F200.00
G01 X28.8021 Y-31.5381 F200.00
G01 X28.7099 Y-31.5891 F200.00
G01 X28.6239 Y-31.6501 F200.00
G01 X28.5490 Y-31.7169 F200.00
G01 X28.5419 Y-31.7240 F200.00
G01 X28.4783 Y-31.7951 F200.00
G01 X28.4720 Y-31.8030 F200.00
G01 X28.4141 Y-31.8849 F200.00
G01 X28.3631 Y-31.9771 F200.00
G01 X28.3227 Y-32.0745 F200.00
G01 X28.2936 Y-32.1758 F200.00
G01 X28.2759 Y-32.2798 F200.00
G01 X28.2700 Y-32.3850 F200.00
G01 X28.2759 Y-32.4902 F200.00
G01 X28.2936 Y-32.5942 F200.00
G01 X28.3227 Y-32.6955 F200.00
G01 X28.3610 Y-32.7882 F200.00
G01 X28.3732 Y-32.8115 F200.00
G01 X28.1370 Y-33.0477 F200.00
G01 X28.1244 Y-33.0338 F200.00
G01 X28.0081 Y-32.7530 F200.00
G01 X28.0841 Y-32.6087 F200.00
G01 X28.0938 Y-32.5859 F200.00
G01 X28.0998 Y-32.5672 F200.00
G01 X28.1038 Y-32.5480 F200.00
G01 X28.1053 Y-32.5378 F200.00
G01 X28.1068 Y-32.5131 F200.00
G01 X28.1061 Y-32.4934 F200.00
G01 X28.1026 Y-32.4689 F200.00
G01 X28.0963 Y-32.4449 F200.00
G01 X28.0893 Y-32.4266 F200.00
G01 X28.0757 Y-32.3999 F200.00
G01 X28.0617 Y-32.3795 F200.00
G01 X28.0490 Y-32.3645 F200.00
G01 X28.0311 Y-32.3473 F200.00
G01 X28.0232 Y-32.3408 F200.00
G01 X28.0072 Y-32.3294 F200.00
G01 X27.9856 Y-32.3172 F200.00
G01 X27.9628 Y-32.3076 F200.00
G01 X27.9440 Y-32.3019 F200.00
G01 X27.9146 Y-32.2964 F200.00
G01 X27.8924 Y-32.2950 F200.00
G01 X27.7466 Y-32.2949 F200.00
G01 X27.7250 Y-32.2938 F200.00
G01 X27.6957 Y-32.2959 F200.00
G01 X27.6718 Y-32.3005 F200.00
G01 X27.6533 Y-32.3060 F200.00
G01 X27.6354 Y-32.3132 F200.00
G01 X27.6095 Y-32.3271 F200.00
G01 X27.5858 Y-32.3444 F200.00
G01 X27.5715 Y-32.3574 F200.00
G01 X27.1636 Y-32.7654 F200.00
G01 X27.1508 Y-32.7796 F200.00
G01 X27.1406 Y-32.7931 F200.00
G01 X27.1155 Y-32.8305 F200.00
G01 X26.9111 Y-32.9671 F200.00
G01 X26.6700 Y-33.0150 F200.00
G01 X26.6279 Y-33.0067 F200.00
G01 X26.6134 Y-33.0045 F200.00
G01 X26.5878 Y-33.0029 F200.00
G01 X25.6979 Y-33.0029 F200.00
G01 X25.6694 Y-33.0049 F200.00
G01 X25.6509 Y-33.0081 F200.00
G01 X25.6328 Y-33.0130 F200.00
G01 X25.6062 Y-33.0233 F200.00
G01 X25.5812 Y-33.0371 F200.00
G01 X25.5620 Y-33.0509 F200.00
G01 X25.5478 Y-33.0632 F200.00
G01 X25.5349 Y-33.0768 F200.00
G01 X25.5174 Y-33.0994 F200.00
G01 X25.4081 Y-33.2631 F200.00
G01 X25.0879 Y-33.4770 F200.00
G01 X25.0688 Y-33.4914 F200.00
G01 X25.0549 Y-33.5043 F200.00
G01 X25.0480 Y-33.5115 F200.00
G01 X25.0329 Y-33.5300 F200.00
G01 X25.0224 Y-33.5458 F200.00
G01 X25.0112 Y-33.5670 F200.00
G01 X25.0010 Y-33.5940 F200.00
G01 X24.9962 Y-33.6123 F200.00
G01 X24.9925 Y-33.6360 F200.00
G01 X24.9915 Y-33.6599 F200.00
G01 X24.9926 Y-33.6788 F200.00
G01 X24.9972 Y-33.7073 F200.00
G01 X25.0058 Y-33.7349 F200.00
G01 X25.0133 Y-33.7524 F200.00
G01 X25.0224 Y-33.7690 F200.00
G01 X25.0276 Y-33.7774 F200.00
G01 X25.0419 Y-33.7966 F200.00
G01 X25.0547 Y-33.8106 F200.00
G01 X25.0706 Y-33.8251 F200.00
G01 X25.4648 Y-34.1422 F200.00
G01 X25.6883 Y-34.5504 F200.00
G01 X25.6715 Y-34.5809 F200.00
G01 X25.3495 Y-34.5809 F200.00
G01 X25.3319 Y-34.5388 F200.00
G01 X25.2861 Y-34.4558 F200.00
G01 X25.2808 Y-34.4473 F200.00
G01 X25.2289 Y-34.3741 F200.00
G01 X25.2226 Y-34.3662 F200.00
G01 X25.1593 Y-34.2957 F200.00
G01 X25.0888 Y-34.2324 F200.00
G01 X25.0809 Y-34.2261 F200.00
G01 X25.0035 Y-34.1714 F200.00
G01 X24.9162 Y-34.1231 F200.00
G01 X24.8239 Y-34.0849 F200.00
G01 X24.7329 Y-34.0586 F200.00
G01 X24.7231 Y-34.0563 F200.00
G01 X24.6296 Y-34.0406 F200.00
G01 X24.5325 Y-34.0350 F200.00
G01 X23.7300 Y-34.0350 F200.00
G01 X23.6354 Y-34.0402 F200.00
G01 X23.6254 Y-34.0413 F200.00
G01 X23.5320 Y-34.0573 F200.00
G01 X23.4361 Y-34.0849 F200.00
G01 X23.3438 Y-34.1231 F200.00
G01 X23.2608 Y-34.1689 F200.00
G01 X23.2523 Y-34.1742 F200.00
G01 X23.1791 Y-34.2261 F200.00
G01 X23.1712 Y-34.2324 F200.00
G01 X23.1007 Y-34.2957 F200.00
G01 X23.0342 Y-34.3701 F200.00
G01 X22.9764 Y-34.4515 F200.00
G01 X22.9281 Y-34.5388 F200.00
G01 X22.8899 Y-34.6311 F200.00
G01 X22.8636 Y-34.7221 F200.00
G01 X22.8613 Y-34.7319 F200.00
G01 X22.8463 Y-34.8204 F200.00
G01 X22.8452 Y-34.8304 F200.00
G01 X22.8400 Y-34.9250 F200.00
G01 X22.8456 Y-35.0246 F200.00
G01 X22.8623 Y-35.1230 F200.00
G01 X22.8884 Y-35.2141 F200.00
G01 X22.8917 Y-35.2237 F200.00
G01 X22.9281 Y-35.3112 F200.00
G01 X22.9739 Y-35.3942 F200.00
G01 X22.9792 Y-35.4027 F200.00
G01 X23.0342 Y-35.4799 F200.00
G01 X23.1007 Y-35.5543 F200.00
G01 X23.1751 Y-35.6208 F200.00
G01 X23.2523 Y-35.6758 F200.00
G01 X23.2608 Y-35.6811 F200.00
G01 X23.3438 Y-35.7269 F200.00
G01 X23.4313 Y-35.7633 F200.00
G01 X23.4409 Y-35.7666 F200.00
G01 X23.5320 Y-35.7927 F200.00
G01 X23.6304 Y-35.8094 F200.00
G01 X23.7300 Y-35.8150 F200.00
G01 X24.5325 Y-35.8150 F200.00
G01 X24.6296 Y-35.8094 F200.00
G01 X24.7231 Y-35.7937 F200.00
G01 X24.7329 Y-35.7914 F200.00
G01 X24.8239 Y-35.7651 F200.00
G01 X24.9162 Y-35.7269 F200.00
G01 X25.0035 Y-35.6786 F200.00
G01 X25.0809 Y-35.6239 F200.00
G01 X25.0888 Y-35.6176 F200.00
G01 X25.1593 Y-35.5543 F200.00
G01 X25.2226 Y-35.4838 F200.00
G01 X25.2289 Y-35.4759 F200.00
G01 X25.2808 Y-35.4027 F200.00
G01 X25.2861 Y-35.3942 F200.00
G01 X25.3319 Y-35.3112 F200.00
G01 X25.3495 Y-35.2691 F200.00
G01 X25.6715 Y-35.2691 F200.00
G01 X25.6883 Y-35.2996 F200.00
G01 X25.4648 Y-35.7078 F200.00
G01 X25.0941 Y-36.0060 F200.00
G01 X24.6259 Y-36.1429 F200.00
G01 X24.6033 Y-36.1430 F200.00
G01 X24.5816 Y-36.1443 F200.00
G01 X24.5576 Y-36.1484 F200.00
G01 X24.5342 Y-36.1551 F200.00
G01 X24.5072 Y-36.1667 F200.00
G01 X24.4904 Y-36.1762 F200.00
G01 X24.4705 Y-36.1903 F200.00
G01 X24.4524 Y-36.2065 F200.00
G01 X24.4394 Y-36.2208 F200.00
G01 X24.4331 Y-36.2287 F200.00
G01 X24.4195 Y-36.2489 F200.00
G01 X24.4082 Y-36.2704 F200.00
G01 X24.4010 Y-36.2883 F200.00
G01 X24.3955 Y-36.3068 F200.00
G01 X24.3902 Y-36.3357 F200.00
G01 X24.3888 Y-36.3600 F200.00
G01 X24.3902 Y-36.3843 F200.00
G01 X24.3955 Y-36.4132 F200.00
G01 X24.4010 Y-36.4317 F200.00
G01 X24.4082 Y-36.4496 F200.00
G01 X24.4221 Y-36.4755 F200.00
G01 X24.4362 Y-36.4953 F200.00
G01 X24.4524 Y-36.5135 F200.00
G01 X24.7242 Y-36.7852 F200.00
G01 X24.7405 Y-36.7997 F200.00
G01 X24.7604 Y-36.8138 F200.00
G01 X24.7817 Y-36.8256 F200.00
G01 X24.8042 Y-36.8349 F200.00
G01 X24.8276 Y-36.8416 F200.00
G01 X24.8466 Y-36.8450 F200.00
G01 X24.8759 Y-36.8471 F200.00
G01 X27.7126 Y-36.8471 F200.00
G01 X27.7419 Y-36.8450 F200.00
G01 X27.7609 Y-36.8416 F200.00
G01 X27.7794 Y-36.8364 F200.00
G01 X27.7890 Y-36.8331 F200.00
G01 X27.8112 Y-36.8233 F200.00
G01 X27.8280 Y-36.8138 F200.00
G01 X27.8518 Y-36.7965 F200.00
G01 X27.8660 Y-36.7835 F200.00
G01 X27.8823 Y-36.7653 F200.00
G01 X27.8964 Y-36.7455 F200.00
G01 X27.9058 Y-36.7287 F200.00
G01 X27.9174 Y-36.7017 F200.00
G01 X27.9242 Y-36.6783 F200.00
G01 X27.9283 Y-36.6543 F200.00
G01 X27.9293 Y-36.6379 F200.00
G01 X27.9663 Y-36.4519 F200.00
G01 X28.0587 Y-36.3137 F200.00
G01 X28.1969 Y-36.2213 F200.00
G01 X28.2235 Y-36.2146 F200.00
G01 X28.2463 Y-36.2059 F200.00
G01 X28.2679 Y-36.1948 F200.00
G01 X28.2921 Y-36.1781 F200.00
G01 X28.3067 Y-36.1655 F200.00
G01 X28.3201 Y-36.1516 F200.00
G01 X28.3381 Y-36.1284 F200.00
G01 X28.3505 Y-36.1074 F200.00
G01 X28.3585 Y-36.0899 F200.00
G01 X28.3678 Y-36.0620 F200.00
G01 X28.3726 Y-36.0382 F200.00
G01 X28.3743 Y-36.0189 F200.00
G01 X28.3746 Y-36.0089 F200.00
G01 X28.3733 Y-35.9846 F200.00
G01 X28.3705 Y-35.9655 F200.00
G01 X28.3644 Y-35.9419 F200.00
G01 X28.3558 Y-35.9192 F200.00
G01 X28.3470 Y-35.9020 F200.00
G01 X28.3340 Y-35.8814 F200.00
G01 X28.3279 Y-35.8733 F200.00
G01 X28.3154 Y-35.8587 F200.00
G01 X28.2979 Y-35.8422 F200.00
G01 X28.0156 Y-35.4197 F200.00
G01 X27.9172 Y-34.9250 F200.00
G01 X28.0156 Y-34.4303 F200.00
G01 X28.2959 Y-34.0109 F200.00
G01 X28.5791 Y-33.8216 F200.00
G01 X28.5944 Y-33.8103 F200.00
G01 X28.6159 Y-33.7906 F200.00
G01 X28.6315 Y-33.7722 F200.00
G01 X28.6450 Y-33.7522 F200.00
G01 X28.6562 Y-33.7308 F200.00
G01 X28.6649 Y-33.7083 F200.00
G01 X28.6699 Y-33.6898 F200.00
G01 X28.6740 Y-33.6660 F200.00
G01 X28.6749 Y-33.6561 F200.00
G01 X28.6755 Y-33.6370 F200.00
G01 X28.6737 Y-33.6129 F200.00
G01 X28.6692 Y-33.5892 F200.00
G01 X28.6622 Y-33.5661 F200.00
G01 X28.6526 Y-33.5440 F200.00
G01 X28.6432 Y-33.5273 F200.00
G01 X28.6377 Y-33.5189 F200.00
G01 X28.6230 Y-33.4997 F200.00
G01 X28.6100 Y-33.4857 F200.00
G01 X28.5918 Y-33.4699 F200.00
G01 X28.5720 Y-33.4561 F200.00
G01 X28.5572 Y-33.4480 F200.00
G01 X28.7835 Y-33.2218 F200.00
G01 X28.8068 Y-33.2340 F200.00
G01 X28.8948 Y-33.2704 F200.00
G01 X28.9043 Y-33.2738 F200.00
G01 X29.0008 Y-33.3014 F200.00
G01 X29.0998 Y-33.3184 F200.00
G01 X29.1098 Y-33.3195 F200.00
G01 X29.2100 Y-33.3250 F200.00
G01 X29.3152 Y-33.3191 F200.00
G01 X29.4192 Y-33.3014 F200.00
G01 X29.5157 Y-33.2738 F200.00
G01 X29.5252 Y-33.2704 F200.00
G01 X29.6179 Y-33.2319 F200.00
G01 X29.7101 Y-33.1809 F200.00
G01 X29.7961 Y-33.1199 F200.00
G01 X29.8747 Y-33.0497 F200.00
G01 X29.9449 Y-32.9711 F200.00
G01 X30.0059 Y-32.8851 F200.00
G01 X30.0569 Y-32.7929 F200.00
G01 X30.0835 Y-32.7291 F200.00
G01 X30.3993 Y-32.7291 F200.00
G01 X30.4119 Y-32.7530 F200.00
G01 X30.2956 Y-33.0338 F200.00
G01 X29.9600 Y-33.4021 F200.00
G01 X29.8693 Y-33.4447 F200.00
G01 X29.8480 Y-33.4561 F200.00
G01 X29.8282 Y-33.4699 F200.00
G01 X29.8137 Y-33.4823 F200.00
G01 X29.7937 Y-33.5035 F200.00
G01 X29.7794 Y-33.5230 F200.00
G01 X29.7674 Y-33.5440 F200.00
G01 X29.7578 Y-33.5661 F200.00
G01 X29.7508 Y-33.5892 F200.00
G01 X29.7463 Y-33.6129 F200.00
G01 X29.7445 Y-33.6370 F200.00
G01 X29.7454 Y-33.6611 F200.00
G01 X29.7489 Y-33.6849 F200.00
G01 X29.7551 Y-33.7083 F200.00
G01 X29.7619 Y-33.7262 F200.00
G01 X29.7750 Y-33.7522 F200.00
G01 X29.7885 Y-33.7722 F200.00
G01 X29.8007 Y-33.7869 F200.00
G01 X29.8216 Y-33.8071 F200.00
G01 X29.8409 Y-33.8216 F200.00
G01 X30.1241 Y-34.0109 F200.00
G01 X30.4044 Y-34.4303 F200.00
G01 X30.5028 Y-34.9250 F200.00
G01 X30.4559 Y-35.1606 F200.00
G01 X30.4526 Y-35.1840 F200.00
G01 X30.4518 Y-35.2077 F200.00
G01 X30.4536 Y-35.2313 F200.00
G01 X30.4580 Y-35.2545 F200.00
G01 X30.4666 Y-35.2817 F200.00
G01 X30.4741 Y-35.2989 F200.00
G01 X30.4857 Y-35.3196 F200.00
G01 X30.4995 Y-35.3388 F200.00
G01 X30.5153 Y-35.3564 F200.00
G01 X30.8404 Y-35.6814 F200.00
G01 X30.8546 Y-35.6942 F200.00
G01 X30.8681 Y-35.7044 F200.00
G01 X30.9055 Y-35.7295 F200.00
G01 X31.0421 Y-35.9339 F200.00
G01 X31.0900 Y-36.1750 F200.00
G01 X31.0817 Y-36.2171 F200.00
G01 X31.0795 Y-36.2316 F200.00
G01 X31.0779 Y-36.2572 F200.00
G01 X31.0779 Y-38.3025 F200.00
G01 X31.0801 Y-38.3324 F200.00
G01 X31.0849 Y-38.3567 F200.00
G01 X31.0906 Y-38.3756 F200.00
G01 X31.0982 Y-38.3938 F200.00
G01 X31.1125 Y-38.4200 F200.00
G01 X31.1272 Y-38.4401 F200.00
G01 X31.1440 Y-38.4584 F200.00
G01 X31.1670 Y-38.4776 F200.00
G01 X31.1878 Y-38.4911 F200.00
G01 X31.2053 Y-38.5001 F200.00
G01 X31.2236 Y-38.5074 F200.00
G01 X31.2525 Y-38.5153 F200.00
G01 X31.2822 Y-38.5191 F200.00
G01 X31.3071 Y-38.5191 F200.00
G01 X31.3267 Y-38.5172 F200.00
G01 X31.3460 Y-38.5134 F200.00
G01 X31.3746 Y-38.5044 F200.00
G01 X31.3971 Y-38.4940 F200.00
G01 X31.4183 Y-38.4811 F200.00
G01 X31.4417 Y-38.4623 F200.00
G01 X31.4557 Y-38.4484 F200.00
G01 X31.4713 Y-38.4291 F200.00
G01 X31.8537 Y-37.8970 F200.00
G01 X31.8642 Y-37.8808 F200.00
G01 X31.8733 Y-37.8637 F200.00
G01 X32.2057 Y-37.1670 F200.00
G01 X32.2132 Y-37.1492 F200.00
G01 X32.2191 Y-37.1308 F200.00
G01 X32.4228 Y-36.3862 F200.00
G01 X32.4271 Y-36.3674 F200.00
G01 X32.4297 Y-36.3482 F200.00
G01 X32.5036 Y-35.5202 F200.00
G01 X32.5127 Y-35.4584 F200.00
G01 X32.5184 Y-35.4394 F200.00
G01 X32.5237 Y-35.4166 F200.00
G01 X32.5260 Y-35.3999 F200.00
G01 X32.5271 Y-35.3787 F200.00
G01 X32.5270 Y-5.2656 F200.00
G01 X32.5249 Y-5.2386 F200.00
G01 X32.5200 Y-5.2137 F200.00
G01 X32.5027 Y-5.1083 F200.00
G01 X32.4533 Y-4.4355 F200.00
G01 X32.4493 Y-4.4078 F200.00
G01 X32.2664 Y-3.6444 F200.00
G01 X32.2610 Y-3.6258 F200.00
G01 X32.2540 Y-3.6078 F200.00
G01 X31.9438 Y-2.9009 F200.00
G01 X31.9352 Y-2.8836 F200.00
G01 X31.9252 Y-2.8671 F200.00
G01 X31.4946 Y-2.2264 F200.00
G01 X31.4831 Y-2.2108 F200.00
G01 X31.4717 Y-2.1978 F200.00
G01 X30.9331 Y-1.6420 F200.00
G01 X30.9190 Y-1.6288 F200.00
G01 X30.9039 Y-1.6168 F200.00
G01 X30.2770 Y-1.1663 F200.00
G01 X30.2608 Y-1.1558 F200.00
G01 X30.2437 Y-1.1467 F200.00
G01 X29.5452 Y-0.8135 F200.00
G01 X29.5292 Y-0.8068 F200.00
G01 X29.5108 Y-0.8009 F200.00
G01 X28.7662 Y-0.5972 F200.00
G01 X28.7474 Y-0.5929 F200.00
G01 X28.7282 Y-0.5903 F200.00
G01 X27.9002 Y-0.5164 F200.00
G01 X27.8384 Y-0.5073 F200.00
G01 X27.8194 Y-0.5016 F200.00
G01 X27.8009 Y-0.4971 F200.00
G01 X27.7755 Y-0.4937 F200.00
G01 X27.7587 Y-0.4929 F200.00
G01 X5.2682 Y-0.4929 F200.00
G01 X5.2386 Y-0.4951 F200.00
G01 X5.2137 Y-0.5000 F200.00
G01 X5.1083 Y-0.5173 F200.00
G01 X4.4318 Y-0.5670 F200.00
G01 X4.4007 Y-0.5721 F200.00
G01 X3.6444 Y-0.7536 F200.00
G01 X3.6258 Y-0.7590 F200.00
G01 X3.6078 Y-0.7660 F200.00
G01 X2.9009 Y-1.0762 F200.00
G01 X2.8836 Y-1.0848 F200.00
G01 X2.8671 Y-1.0948 F200.00
G01 X2.2264 Y-1.5254 F200.00
G01 X2.2108 Y-1.5369 F200.00
G01 X2.1964 Y-1.5497 F200.00
G01 X1.7660 Y-1.9668 F200.00
G01 X1.6420 Y-2.0869 F200.00
G01 X1.6288 Y-2.1010 F200.00
G01 X1.6168 Y-2.1161 F200.00
G01 X1.1663 Y-2.7430 F200.00
G01 X1.1558 Y-2.7592 F200.00
G01 X1.1467 Y-2.7763 F200.00
G01 X0.8143 Y-3.4730 F200.00
G01 X0.8068 Y-3.4908 F200.00
G01 X0.8009 Y-3.5092 F200.00
G01 X0.5972 Y-4.2538 F200.00
G01 X0.5929 Y-4.2726 F200.00
G01 X0.5903 Y-4.2918 F200.00
G01 X0.5164 Y-5.1198 F200.00
G01 X0.5073 Y-5.1816 F200.00
G01 X0.5016 Y-5.2006 F200.00
G01 X0.4963 Y-5.2234 F200.00
G01 X0.4940 Y-5.2401 F200.00
G01 X0.4929 Y-5.2613 F200.00
G00 Z2.5400
G00 X2.7983 Y-7.8482
G01 F100.00
G01 Z-0.1000
G01 F200.00
G01 X2.5903 Y-8.0563 F200.00
G01 X2.8433 Y-8.3865 F200.00
G01 X4.2649 Y-8.9906 F200.00
G01 X5.8235 Y-9.0049 F200.00
G01 X7.2882 Y-8.4138 F200.00
G01 X7.3038 Y-8.4034 F200.00
G01 X7.5697 Y-8.0563 F200.00
G01 X7.3617 Y-7.8482 F200.00
G01 X7.3143 Y-7.8898 F200.00
G01 X6.9942 Y-8.1169 F200.00
G01 X6.9856 Y-8.1223 F200.00
G01 X6.6376 Y-8.3145 F200.00
G01 X6.2657 Y-8.4685 F200.00
G01 X5.8788 Y-8.5800 F200.00
G01 X5.4870 Y-8.6467 F200.00
G01 X5.4769 Y-8.6479 F200.00
G01 X5.0850 Y-8.6699 F200.00
G01 X5.0750 Y-8.6699 F200.00
G01 X4.6780 Y-8.6474 F200.00
G01 X4.2861 Y-8.5810 F200.00
G01 X4.2763 Y-8.5787 F200.00
G01 X3.8943 Y-8.4685 F200.00
G01 X3.5224 Y-8.3145 F200.00
G01 X3.1744 Y-8.1223 F200.00
G01 X3.1658 Y-8.1169 F200.00
G01 X2.8457 Y-7.8898 F200.00
G01 X2.7983 Y-7.8482 F200.00
G00 Z2.5400
G00 X4.3149 Y-14.1357
G01 F100.00
G01 Z-0.1000
G01 F200.00
G01 X4.3149 Y-33.8150 F200.00
G01 X4.3174 Y-33.8525 F200.00
G01 X4.3222 Y-33.8796 F200.00
G01 X4.3296 Y-33.9060 F200.00
G01 X4.3436 Y-33.9409 F200.00
G01 X4.3622 Y-33.9735 F200.00
G01 X4.3782 Y-33.9959 F200.00
G01 X4.3981 Y-34.0183 F200.00
G01 X6.8487 Y-36.4689 F200.00
G01 X6.8158 Y-36.5486 F200.00
G01 X6.7906 Y-36.6355 F200.00
G01 X6.7884 Y-36.6454 F200.00
G01 X6.7741 Y-36.7296 F200.00
G01 X6.7729 Y-36.7396 F200.00
G01 X6.7680 Y-36.8300 F200.00
G01 X6.7734 Y-36.9254 F200.00
G01 X6.7884 Y-37.0146 F200.00
G01 X6.7906 Y-37.0245 F200.00
G01 X6.8158 Y-37.1114 F200.00
G01 X6.8503 Y-37.1951 F200.00
G01 X6.8547 Y-37.2042 F200.00
G01 X6.8986 Y-37.2833 F200.00
G01 X6.9508 Y-37.3572 F200.00
G01 X6.9571 Y-37.3651 F200.00
G01 X7.0175 Y-37.4325 F200.00
G01 X7.0849 Y-37.4929 F200.00
G01 X7.0928 Y-37.4992 F200.00
G01 X7.1625 Y-37.5486 F200.00
G01 X7.1711 Y-37.5540 F200.00
G01 X7.2503 Y-37.5976 F200.00
G01 X7.3339 Y-37.6324 F200.00
G01 X7.3434 Y-37.6357 F200.00
G01 X7.4304 Y-37.6606 F200.00
G01 X7.5246 Y-37.6766 F200.00
G01 X7.6200 Y-37.6820 F200.00
G01 X7.7104 Y-37.6771 F200.00
G01 X7.7204 Y-37.6759 F200.00
G01 X7.8096 Y-37.6606 F200.00
G01 X7.8966 Y-37.6357 F200.00
G01 X7.9061 Y-37.6324 F200.00
G01 X7.9897 Y-37.5976 F200.00
G01 X8.0689 Y-37.5540 F200.00
G01 X8.0775 Y-37.5486 F200.00
G01 X8.1472 Y-37.4992 F200.00
G01 X8.1551 Y-37.4929 F200.00
G01 X8.2225 Y-37.4325 F200.00
G01 X8.2861 Y-37.3612 F200.00
G01 X8.3414 Y-37.2833 F200.00
G01 X8.3853 Y-37.2042 F200.00
G01 X8.3897 Y-37.1951 F200.00
G01 X8.4224 Y-37.1161 F200.00
G01 X8.4257 Y-37.1066 F200.00
G01 X8.4506 Y-37.0196 F200.00
G01 X8.4659 Y-36.9304 F200.00
G01 X8.4671 Y-36.9204 F200.00
G01 X8.4720 Y-36.8300 F200.00
G01 X8.4666 Y-36.7346 F200.00
G01 X8.4506 Y-36.6404 F200.00
G01 X8.4257 Y-36.5534 F200.00
G01 X8.4224 Y-36.5439 F200.00
G01 X8.3876 Y-36.4603 F200.00
G01 X8.3440 Y-36.3811 F200.00
G01 X8.3386 Y-36.3725 F200.00
G01 X8.2892 Y-36.3028 F200.00
G01 X8.2829 Y-36.2949 F200.00
G01 X8.2259 Y-36.2312 F200.00
G01 X8.2188 Y-36.2241 F200.00
G01 X8.1512 Y-36.1639 F200.00
G01 X8.0733 Y-36.1086 F200.00
G01 X7.9942 Y-36.0647 F200.00
G01 X7.9851 Y-36.0603 F200.00
G01 X7.9014 Y-36.0258 F200.00
G01 X7.8096 Y-35.9994 F200.00
G01 X7.7154 Y-35.9834 F200.00
G01 X7.6250 Y-35.9781 F200.00
G01 X7.6150 Y-35.9781 F200.00
G01 X7.5246 Y-35.9834 F200.00
G01 X7.4354 Y-35.9984 F200.00
G01 X7.4255 Y-36.0006 F200.00
G01 X7.3386 Y-36.0258 F200.00
G01 X7.2589 Y-36.0587 F200.00
G01 X4.8951 Y-33.6948 F200.00
G01 X4.8951 Y-14.1357 F200.00
G01 X4.9747 Y-14.1026 F200.00
G01 X5.0539 Y-14.0590 F200.00
G01 X5.0625 Y-14.0536 F200.00
G01 X5.1362 Y-14.0011 F200.00
G01 X5.2038 Y-13.9409 F200.00
G01 X5.2109 Y-13.9338 F200.00
G01 X5.2711 Y-13.8662 F200.00
G01 X5.3236 Y-13.7925 F200.00
G01 X5.3290 Y-13.7839 F200.00
G01 X5.3726 Y-13.7047 F200.00
G01 X5.4074 Y-13.6211 F200.00
G01 X5.4107 Y-13.6116 F200.00
G01 X5.4356 Y-13.5246 F200.00
G01 X5.4509 Y-13.4354 F200.00
G01 X5.4521 Y-13.4254 F200.00
G01 X5.4570 Y-13.3350 F200.00
G01 X5.4521 Y-13.2446 F200.00
G01 X5.4509 Y-13.2346 F200.00
G01 X5.4356 Y-13.1454 F200.00
G01 X5.4107 Y-13.0584 F200.00
G01 X5.4074 Y-13.0489 F200.00
G01 X5.3726 Y-12.9653 F200.00
G01 X5.3290 Y-12.8861 F200.00
G01 X5.3236 Y-12.8775 F200.00
G01 X5.2711 Y-12.8038 F200.00
G01 X5.2109 Y-12.7362 F200.00
G01 X5.2038 Y-12.7291 F200.00
G01 X5.1362 Y-12.6689 F200.00
G01 X5.0625 Y-12.6164 F200.00
G01 X5.0539 Y-12.6110 F200.00
G01 X4.9747 Y-12.5674 F200.00
G01 X4.8864 Y-12.5308 F200.00
G01 X4.7946 Y-12.5044 F200.00
G01 X4.7054 Y-12.4891 F200.00
G01 X4.6954 Y-12.4879 F200.00
G01 X4.6100 Y-12.4831 F200.00
G01 X4.6000 Y-12.4831 F200.00
G01 X4.5096 Y-12.4884 F200.00
G01 X4.4154 Y-12.5044 F200.00
G01 X4.3236 Y-12.5308 F200.00
G01 X4.2353 Y-12.5674 F200.00
G01 X4.1517 Y-12.6136 F200.00
G01 X4.0778 Y-12.6658 F200.00
G01 X4.0699 Y-12.6721 F200.00
G01 X4.0062 Y-12.7291 F200.00
G01 X3.9991 Y-12.7362 F200.00
G01 X3.9389 Y-12.8038 F200.00
G01 X3.8836 Y-12.8817 F200.00
G01 X3.8374 Y-12.9653 F200.00
G01 X3.8008 Y-13.0536 F200.00
G01 X3.7744 Y-13.1454 F200.00
G01 X3.7584 Y-13.2396 F200.00
G01 X3.7530 Y-13.3350 F200.00
G01 X3.7579 Y-13.4254 F200.00
G01 X3.7591 Y-13.4354 F200.00
G01 X3.7734 Y-13.5196 F200.00
G01 X3.7756 Y-13.5295 F200.00
G01 X3.8008 Y-13.6164 F200.00
G01 X3.8374 Y-13.7047 F200.00
G01 X3.8836 Y-13.7883 F200.00
G01 X3.9358 Y-13.8622 F200.00
G01 X3.9421 Y-13.8701 F200.00
G01 X3.9991 Y-13.9338 F200.00
G01 X4.0062 Y-13.9409 F200.00
G01 X4.0738 Y-14.0011 F200.00
G01 X4.1517 Y-14.0564 F200.00
G01 X4.2353 Y-14.1026 F200.00
G01 X4.3149 Y-14.1357 F200.00
G00 Z2.5400
G00 X7.3241 Y-22.3924
G01 F100.00
G01 Z-0.1000
G01 F200.00
G01 X7.3341 Y-22.4117 F200.00
G01 X7.3788 Y-22.5200 F200.00
G01 X7.4127 Y-22.6375 F200.00
G01 X7.4331 Y-22.7580 F200.00
G01 X7.4400 Y-22.8800 F200.00
G01 X7.4331 Y-23.0020 F200.00
G01 X7.4127 Y-23.1225 F200.00
G01 X7.3788 Y-23.2400 F200.00
G01 X7.3341 Y-23.3483 F200.00
G01 X7.3241 Y-23.3676 F200.00
G01 X7.5577 Y-23.6011 F200.00
G01 X7.6006 Y-23.5852 F200.00
G01 X7.7774 Y-23.1094 F200.00
G01 X7.7564 Y-22.5416 F200.00
G01 X7.6051 Y-22.1764 F200.00
G01 X7.5577 Y-22.1589 F200.00
G01 X7.3241 Y-22.3924 F200.00
G00 Z2.5400
G00 X5.3456 Y-31.5699
G01 F100.00
G01 Z-0.1000
G01 F200.00
G01 X7.3500 Y-31.5700 F200.00
G01 X7.3645 Y-31.5688 F200.00
G01 X7.3745 Y-31.5666 F200.00
G01 X7.3841 Y-31.5633 F200.00
G01 X7.3933 Y-31.5589 F200.00
G01 X7.4020 Y-31.5535 F200.00
G01 X7.4099 Y-31.5471 F200.00
G01 X7.4171 Y-31.5399 F200.00
G01 X7.4235 Y-31.5320 F200.00
G01 X7.4289 Y-31.5233 F200.00
G01 X7.4333 Y-31.5141 F200.00
G01 X7.4366 Y-31.5045 F200.00
G01 X7.4388 Y-31.4945 F200.00
G01 X7.4400 Y-31.4800 F200.00
G01 X7.4400 Y-29.4800 F200.00
G01 X7.4388 Y-29.4655 F200.00
G01 X7.4366 Y-29.4555 F200.00
G01 X7.4333 Y-29.4459 F200.00
G01 X7.4289 Y-29.4367 F200.00
G01 X7.4235 Y-29.4280 F200.00
G01 X7.4171 Y-29.4201 F200.00
G01 X7.4099 Y-29.4129 F200.00
G01 X7.4020 Y-29.4065 F200.00
G01 X7.3933 Y-29.4011 F200.00
G01 X7.3841 Y-29.3967 F200.00
G01 X7.3745 Y-29.3934 F200.00
G01 X7.3645 Y-29.3912 F200.00
G01 X7.3544 Y-29.3901 F200.00
G01 X6.6401 Y-29.3900 F200.00
G01 X6.6401 Y-29.2002 F200.00
G01 X9.4452 Y-26.3951 F200.00
G01 X21.2098 Y-26.3951 F200.00
G01 X22.3249 Y-27.5101 F200.00
G01 X22.3532 Y-27.5348 F200.00
G01 X22.3757 Y-27.5506 F200.00
G01 X22.3996 Y-27.5641 F200.00
G01 X22.4295 Y-27.5770 F200.00
G01 X22.4654 Y-27.5878 F200.00
G01 X22.4975 Y-27.5933 F200.00
G01 X22.5300 Y-27.5951 F200.00
G01 X22.8887 Y-27.5951 F200.00
G01 X22.9261 Y-27.6865 F200.00
G01 X22.9305 Y-27.6956 F200.00
G01 X22.9764 Y-27.7785 F200.00
G01 X23.0311 Y-27.8559 F200.00
G01 X23.0374 Y-27.8638 F200.00
G01 X23.1007 Y-27.9343 F200.00
G01 X23.1712 Y-27.9976 F200.00
G01 X23.1791 Y-28.0039 F200.00
G01 X23.2565 Y-28.0586 F200.00
G01 X23.3394 Y-28.1045 F200.00
G01 X23.3485 Y-28.1089 F200.00
G01 X23.4361 Y-28.1451 F200.00
G01 X23.5271 Y-28.1714 F200.00
G01 X23.5369 Y-28.1737 F200.00
G01 X23.6304 Y-28.1894 F200.00
G01 X23.7250 Y-28.1949 F200.00
G01 X24.5300 Y-28.1950 F200.00
G01 X24.6296 Y-28.1894 F200.00
G01 X24.7280 Y-28.1727 F200.00
G01 X24.8239 Y-28.1451 F200.00
G01 X24.9162 Y-28.1069 F200.00
G01 X25.0035 Y-28.0586 F200.00
G01 X25.0809 Y-28.0039 F200.00
G01 X25.0888 Y-27.9976 F200.00
G01 X25.1593 Y-27.9343 F200.00
G01 X25.2226 Y-27.8638 F200.00
G01 X25.2289 Y-27.8559 F200.00
G01 X25.2836 Y-27.7785 F200.00
G01 X25.3295 Y-27.6956 F200.00
G01 X25.3339 Y-27.6865 F200.00
G01 X25.3701 Y-27.5989 F200.00
G01 X25.3964 Y-27.5079 F200.00
G01 X25.3987 Y-27.4981 F200.00
G01 X25.4144 Y-27.4046 F200.00
G01 X25.4199 Y-27.3100 F200.00
G01 X25.4199 Y-27.3000 F200.00
G01 X25.4144 Y-27.2054 F200.00
G01 X25.3977 Y-27.1070 F200.00
G01 X25.3716 Y-27.0159 F200.00
G01 X25.3683 Y-27.0063 F200.00
G01 X25.3319 Y-26.9188 F200.00
G01 X25.2836 Y-26.8315 F200.00
G01 X25.2289 Y-26.7541 F200.00
G01 X25.2226 Y-26.7462 F200.00
G01 X25.1593 Y-26.6757 F200.00
G01 X25.0849 Y-26.6092 F200.00
G01 X25.0077 Y-26.5542 F200.00
G01 X24.9992 Y-26.5489 F200.00
G01 X24.9162 Y-26.5031 F200.00
G01 X24.8239 Y-26.4649 F200.00
G01 X24.7329 Y-26.4386 F200.00
G01 X24.7231 Y-26.4363 F200.00
G01 X24.6296 Y-26.4206 F200.00
G01 X24.5325 Y-26.4150 F200.00
G01 X23.7250 Y-26.4151 F200.00
G01 X23.6354 Y-26.4202 F200.00
G01 X23.6254 Y-26.4213 F200.00
G01 X23.5320 Y-26.4373 F200.00
G01 X23.4409 Y-26.4634 F200.00
G01 X23.4313 Y-26.4667 F200.00
G01 X23.3438 Y-26.5031 F200.00
G01 X23.2565 Y-26.5514 F200.00
G01 X23.1751 Y-26.6092 F200.00
G01 X23.1007 Y-26.6757 F200.00
G01 X23.0342 Y-26.7501 F200.00
G01 X22.9764 Y-26.8315 F200.00
G01 X22.9281 Y-26.9188 F200.00
G01 X22.8887 Y-27.0149 F200.00
G01 X22.6502 Y-27.0149 F200.00
G01 X21.5333 Y-25.8981 F200.00
G01 X21.5109 Y-25.8782 F200.00
G01 X21.4885 Y-25.8622 F200.00
G01 X21.4559 Y-25.8436 F200.00
G01 X21.4258 Y-25.8312 F200.00
G01 X21.3994 Y-25.8234 F200.00
G01 X21.3675 Y-25.8174 F200.00
G01 X21.3574 Y-25.8163 F200.00
G01 X21.3300 Y-25.8149 F200.00
G01 X9.3250 Y-25.8149 F200.00
G01 X9.2925 Y-25.8167 F200.00
G01 X9.2605 Y-25.8222 F200.00
G01 X9.2292 Y-25.8312 F200.00
G01 X9.1947 Y-25.8459 F200.00
G01 X9.1707 Y-25.8594 F200.00
G01 X9.1482 Y-25.8751 F200.00
G01 X9.1199 Y-25.8999 F200.00
G01 X6.1414 Y-28.8785 F200.00
G01 X6.1232 Y-28.8991 F200.00
G01 X6.1072 Y-28.9215 F200.00
G01 X6.0886 Y-28.9541 F200.00
G01 X6.0746 Y-28.9890 F200.00
G01 X6.0672 Y-29.0154 F200.00
G01 X6.0624 Y-29.0425 F200.00
G01 X6.0599 Y-29.0800 F200.00
G01 X6.0599 Y-29.3900 F200.00
G01 X5.3456 Y-29.3901 F200.00
G01 X5.3355 Y-29.3912 F200.00
G01 X5.3255 Y-29.3934 F200.00
G01 X5.3159 Y-29.3967 F200.00
G01 X5.3067 Y-29.4011 F200.00
G01 X5.2980 Y-29.4065 F200.00
G01 X5.2901 Y-29.4129 F200.00
G01 X5.2829 Y-29.4201 F200.00
G01 X5.2765 Y-29.4280 F200.00
G01 X5.2711 Y-29.4367 F200.00
G01 X5.2667 Y-29.4459 F200.00
G01 X5.2634 Y-29.4555 F200.00
G01 X5.2612 Y-29.4655 F200.00
G01 X5.2600 Y-29.4800 F200.00
G01 X5.2601 Y-31.4844 F200.00
G01 X5.2612 Y-31.4945 F200.00
G01 X5.2634 Y-31.5045 F200.00
G01 X5.2667 Y-31.5141 F200.00
G01 X5.2711 Y-31.5233 F200.00
G01 X5.2765 Y-31.5320 F200.00
G01 X5.2829 Y-31.5399 F200.00
G01 X5.2901 Y-31.5471 F200.00
G01 X5.2980 Y-31.5535 F200.00
G01 X5.3067 Y-31.5589 F200.00
G01 X5.3159 Y-31.5633 F200.00
G01 X5.3255 Y-31.5666 F200.00
G01 X5.3355 Y-31.5688 F200.00
G01 X5.3456 Y-31.5699 F200.00
G00 Z2.5400
G00 X5.9319 Y-36.8250
G01 F100.00
G01 Z-0.1000
G01 F200.00
G01 X5.9266 Y-36.7346 F200.00
G01 X5.9106 Y-36.6404 F200.00
G01 X5.8842 Y-36.5486 F200.00
G01 X5.8497 Y-36.4649 F200.00
G01 X5.8453 Y-36.4558 F200.00
G01 X5.8040 Y-36.3811 F200.00
G01 X5.7986 Y-36.3725 F200.00
G01 X5.7461 Y-36.2988 F200.00
G01 X5.6825 Y-36.2275 F200.00
G01 X5.6112 Y-36.1639 F200.00
G01 X5.5333 Y-36.1086 F200.00
G01 X5.4497 Y-36.0624 F200.00
G01 X5.3661 Y-36.0276 F200.00
G01 X5.3566 Y-36.0243 F200.00
G01 X5.2745 Y-36.0006 F200.00
G01 X5.2646 Y-35.9984 F200.00
G01 X5.1754 Y-35.9834 F200.00
G01 X5.0800 Y-35.9780 F200.00
G01 X4.9846 Y-35.9834 F200.00
G01 X4.8904 Y-35.9994 F200.00
G01 X4.7986 Y-36.0258 F200.00
G01 X4.7149 Y-36.0603 F200.00
G01 X4.7058 Y-36.0647 F200.00
G01 X4.6311 Y-36.1060 F200.00
G01 X4.6225 Y-36.1114 F200.00
G01 X4.5488 Y-36.1639 F200.00
G01 X4.4775 Y-36.2275 F200.00
G01 X4.4139 Y-36.2988 F200.00
G01 X4.3586 Y-36.3767 F200.00
G01 X4.3124 Y-36.4603 F200.00
G01 X4.2776 Y-36.5439 F200.00
G01 X4.2743 Y-36.5534 F200.00
G01 X4.2506 Y-36.6355 F200.00
G01 X4.2484 Y-36.6454 F200.00
G01 X4.2334 Y-36.7346 F200.00
G01 X4.2280 Y-36.8300 F200.00
G01 X4.2334 Y-36.9254 F200.00
G01 X4.2494 Y-37.0196 F200.00
G01 X4.2758 Y-37.1114 F200.00
G01 X4.3103 Y-37.1951 F200.00
G01 X4.3147 Y-37.2042 F200.00
G01 X4.3560 Y-37.2789 F200.00
G01 X4.3614 Y-37.2875 F200.00
G01 X4.4139 Y-37.3612 F200.00
G01 X4.4775 Y-37.4325 F200.00
G01 X4.5488 Y-37.4961 F200.00
G01 X4.6267 Y-37.5514 F200.00
G01 X4.7103 Y-37.5976 F200.00
G01 X4.7939 Y-37.6324 F200.00
G01 X4.8034 Y-37.6357 F200.00
G01 X4.8855 Y-37.6594 F200.00
G01 X4.8954 Y-37.6616 F200.00
G01 X4.9846 Y-37.6766 F200.00
G01 X5.0800 Y-37.6820 F200.00
G01 X5.1754 Y-37.6766 F200.00
G01 X5.2696 Y-37.6606 F200.00
G01 X5.3614 Y-37.6342 F200.00
G01 X5.4451 Y-37.5997 F200.00
G01 X5.4542 Y-37.5953 F200.00
G01 X5.5289 Y-37.5540 F200.00
G01 X5.5375 Y-37.5486 F200.00
G01 X5.6112 Y-37.4961 F200.00
G01 X5.6825 Y-37.4325 F200.00
G01 X5.7461 Y-37.3612 F200.00
G01 X5.8014 Y-37.2833 F200.00
G01 X5.8476 Y-37.1997 F200.00
G01 X5.8824 Y-37.1161 F200.00
G01 X5.8857 Y-37.1066 F200.00
G01 X5.9094 Y-37.0245 F200.00
G01 X5.9116 Y-37.0146 F200.00
G01 X5.9266 Y-36.9254 F200.00
G01 X5.9319 Y-36.8350 F200.00
G01 X5.9319 Y-36.8250 F200.00
G00 Z2.5400
G00 X10.9607 Y-37.1201
G01 F100.00
G01 Z-0.1000
G01 F200.00
G01 X14.6050 Y-37.1201 F200.00
G01 X14.6375 Y-37.1183 F200.00
G01 X14.6696 Y-37.1128 F200.00
G01 X14.7008 Y-37.1038 F200.00
G01 X14.7309 Y-37.0914 F200.00
G01 X14.7593 Y-37.0756 F200.00
G01 X14.7897 Y-37.0536 F200.00
G01 X14.8101 Y-37.0351 F200.00
G01 X15.1151 Y-36.7301 F200.00
G01 X15.1398 Y-36.7018 F200.00
G01 X15.1582 Y-36.6750 F200.00
G01 X15.1714 Y-36.6509 F200.00
G01 X15.1820 Y-36.6255 F200.00
G01 X15.1928 Y-36.5896 F200.00
G01 X15.1983 Y-36.5575 F200.00
G01 X15.2001 Y-36.5250 F200.00
G01 X15.2001 Y-36.2452 F200.00
G01 X15.6303 Y-35.8150 F200.00
G01 X16.2199 Y-35.8150 F200.00
G01 X16.2199 Y-36.3500 F200.00
G01 X16.2217 Y-36.3800 F200.00
G01 X16.2262 Y-36.4071 F200.00
G01 X16.2284 Y-36.4169 F200.00
G01 X16.2380 Y-36.4480 F200.00
G01 X16.2486 Y-36.4734 F200.00
G01 X16.2644 Y-36.5018 F200.00
G01 X16.2832 Y-36.5284 F200.00
G01 X16.3031 Y-36.5508 F200.00
G01 X16.9266 Y-37.1744 F200.00
G01 X16.9266 Y-37.5479 F200.00
G01 X16.9281 Y-37.5781 F200.00
G01 X16.9325 Y-37.6081 F200.00
G01 X16.9387 Y-37.6332 F200.00
G01 X16.9501 Y-37.6660 F200.00
G01 X16.9631 Y-37.6934 F200.00
G01 X16.9763 Y-37.7157 F200.00
G01 X16.9967 Y-37.7437 F200.00
G01 X17.0170 Y-37.7662 F200.00
G01 X17.0361 Y-37.7836 F200.00
G01 X17.0676 Y-37.8069 F200.00
G01 X17.0898 Y-37.8202 F200.00
G01 X17.1172 Y-37.8331 F200.00
G01 X17.1457 Y-37.8433 F200.00
G01 X17.1751 Y-37.8507 F200.00
G01 X17.2051 Y-37.8551 F200.00
G01 X17.2332 Y-37.8566 F200.00
G01 X17.6088 Y-37.8566 F200.00
G01 X18.6742 Y-38.9219 F200.00
G01 X18.7007 Y-38.9448 F200.00
G01 X18.7232 Y-38.9606 F200.00
G01 X18.7471 Y-38.9741 F200.00
G01 X18.7817 Y-38.9888 F200.00
G01 X18.8179 Y-38.9988 F200.00
G01 X18.8450 Y-39.0033 F200.00
G01 X18.8775 Y-39.0051 F200.00
G01 X30.3825 Y-39.0051 F200.00
G01 X30.4125 Y-39.0033 F200.00
G01 X30.4396 Y-38.9988 F200.00
G01 X30.4648 Y-38.9921 F200.00
G01 X30.4805 Y-38.9870 F200.00
G01 X30.5059 Y-38.9764 F200.00
G01 X30.5343 Y-38.9606 F200.00
G01 X30.5609 Y-38.9418 F200.00
G01 X30.5833 Y-38.9219 F200.00
G01 X30.6669 Y-38.8383 F200.00
G01 X30.6868 Y-38.8159 F200.00
G01 X30.7056 Y-38.7893 F200.00
G01 X30.7214 Y-38.7609 F200.00
G01 X30.7338 Y-38.7308 F200.00
G01 X30.7428 Y-38.6996 F200.00
G01 X30.7487 Y-38.6625 F200.00
G01 X30.7501 Y-38.6350 F200.00
G01 X30.7501 Y-36.1750 F200.00
G01 X30.7476 Y-36.1375 F200.00
G01 X30.7428 Y-36.1104 F200.00
G01 X30.7354 Y-36.0840 F200.00
G01 X30.7214 Y-36.0491 F200.00
G01 X30.7056 Y-36.0207 F200.00
G01 X30.6868 Y-35.9941 F200.00
G01 X30.6669 Y-35.9717 F200.00
G01 X30.0468 Y-35.3515 F200.00
G01 X30.0590 Y-35.3282 F200.00
G01 X30.0973 Y-35.2355 F200.00
G01 X30.1264 Y-35.1342 F200.00
G01 X30.1441 Y-35.0302 F200.00
G01 X30.1499 Y-34.9300 F200.00
G01 X30.1499 Y-34.9200 F200.00
G01 X30.1441 Y-34.8198 F200.00
G01 X30.1274 Y-34.7208 F200.00
G01 X30.1252 Y-34.7109 F200.00
G01 X30.0988 Y-34.6193 F200.00
G01 X30.0954 Y-34.6098 F200.00
G01 X30.0569 Y-34.5171 F200.00
G01 X30.0085 Y-34.4292 F200.00
G01 X30.0031 Y-34.4207 F200.00
G01 X29.9449 Y-34.3389 F200.00
G01 X29.8747 Y-34.2603 F200.00
G01 X29.7961 Y-34.1901 F200.00
G01 X29.7101 Y-34.1291 F200.00
G01 X29.6179 Y-34.0781 F200.00
G01 X29.5205 Y-34.0377 F200.00
G01 X29.4192 Y-34.0086 F200.00
G01 X29.3202 Y-33.9916 F200.00
G01 X29.3102 Y-33.9905 F200.00
G01 X29.2100 Y-33.9850 F200.00
G01 X29.1048 Y-33.9909 F200.00
G01 X29.0008 Y-34.0086 F200.00
G01 X28.8995 Y-34.0377 F200.00
G01 X28.8021 Y-34.0781 F200.00
G01 X28.7099 Y-34.1291 F200.00
G01 X28.6239 Y-34.1901 F200.00
G01 X28.5490 Y-34.2569 F200.00
G01 X28.5419 Y-34.2640 F200.00
G01 X28.4751 Y-34.3389 F200.00
G01 X28.4141 Y-34.4249 F200.00
G01 X28.3631 Y-34.5171 F200.00
G01 X28.3246 Y-34.6098 F200.00
G01 X28.3212 Y-34.6193 F200.00
G01 X28.2936 Y-34.7158 F200.00
G01 X28.2766 Y-34.8148 F200.00
G01 X28.2755 Y-34.8248 F200.00
G01 X28.2701 Y-34.9200 F200.00
G01 X28.2701 Y-34.9300 F200.00
G01 X28.2759 Y-35.0302 F200.00
G01 X28.2926 Y-35.1292 F200.00
G01 X28.2948 Y-35.1391 F200.00
G01 X28.3212 Y-35.2307 F200.00
G01 X28.3246 Y-35.2402 F200.00
G01 X28.3631 Y-35.3329 F200.00
G01 X28.4115 Y-35.4208 F200.00
G01 X28.4169 Y-35.4293 F200.00
G01 X28.4751 Y-35.5111 F200.00
G01 X28.5453 Y-35.5897 F200.00
G01 X28.6239 Y-35.6599 F200.00
G01 X28.7099 Y-35.7209 F200.00
G01 X28.8021 Y-35.7719 F200.00
G01 X28.8948 Y-35.8104 F200.00
G01 X28.9043 Y-35.8138 F200.00
G01 X28.9959 Y-35.8402 F200.00
G01 X29.0058 Y-35.8424 F200.00
G01 X29.1048 Y-35.8591 F200.00
G01 X29.2050 Y-35.8649 F200.00
G01 X29.2150 Y-35.8649 F200.00
G01 X29.3152 Y-35.8591 F200.00
G01 X29.4192 Y-35.8414 F200.00
G01 X29.5205 Y-35.8123 F200.00
G01 X29.6132 Y-35.7740 F200.00
G01 X29.6365 Y-35.7618 F200.00
G01 X30.1699 Y-36.2952 F200.00
G01 X30.1699 Y-38.4249 F200.00
G01 X18.9977 Y-38.4249 F200.00
G01 X17.9816 Y-37.4088 F200.00
G01 X17.9816 Y-37.0354 F200.00
G01 X17.9801 Y-37.0051 F200.00
G01 X17.9764 Y-36.9795 F200.00
G01 X17.9669 Y-36.9415 F200.00
G01 X17.9581 Y-36.9172 F200.00
G01 X17.9452 Y-36.8898 F200.00
G01 X17.9296 Y-36.8638 F200.00
G01 X17.9142 Y-36.8430 F200.00
G01 X17.8912 Y-36.8170 F200.00
G01 X17.8652 Y-36.7940 F200.00
G01 X17.8444 Y-36.7786 F200.00
G01 X17.8184 Y-36.7631 F200.00
G01 X17.7910 Y-36.7501 F200.00
G01 X17.7667 Y-36.7413 F200.00
G01 X17.7287 Y-36.7318 F200.00
G01 X17.7031 Y-36.7281 F200.00
G01 X17.6729 Y-36.7266 F200.00
G01 X17.2994 Y-36.7266 F200.00
G01 X16.8001 Y-36.2273 F200.00
G01 X16.8001 Y-35.8150 F200.00
G01 X17.7144 Y-35.8149 F200.00
G01 X17.7246 Y-35.8138 F200.00
G01 X17.7345 Y-35.8116 F200.00
G01 X17.7441 Y-35.8083 F200.00
G01 X17.7533 Y-35.8039 F200.00
G01 X17.7620 Y-35.7985 F200.00
G01 X17.7699 Y-35.7921 F200.00
G01 X17.7771 Y-35.7849 F200.00
G01 X17.7835 Y-35.7770 F200.00
G01 X17.7889 Y-35.7683 F200.00
G01 X17.7933 Y-35.7591 F200.00
G01 X17.7966 Y-35.7495 F200.00
G01 X17.7988 Y-35.7395 F200.00
G01 X17.8000 Y-35.7250 F200.00
G01 X17.7999 Y-34.1206 F200.00
G01 X17.7988 Y-34.1105 F200.00
G01 X17.7966 Y-34.1005 F200.00
G01 X17.7933 Y-34.0909 F200.00
G01 X17.7889 Y-34.0817 F200.00
G01 X17.7835 Y-34.0730 F200.00
G01 X17.7771 Y-34.0651 F200.00
G01 X17.7699 Y-34.0579 F200.00
G01 X17.7620 Y-34.0515 F200.00
G01 X17.7533 Y-34.0461 F200.00
G01 X17.7441 Y-34.0417 F200.00
G01 X17.7345 Y-34.0384 F200.00
G01 X17.7246 Y-34.0362 F200.00
G01 X17.7144 Y-34.0351 F200.00
G01 X15.3100 Y-34.0350 F200.00
G01 X15.2955 Y-34.0362 F200.00
G01 X15.2855 Y-34.0384 F200.00
G01 X15.2759 Y-34.0417 F200.00
G01 X15.2667 Y-34.0461 F200.00
G01 X15.2580 Y-34.0515 F200.00
G01 X15.2501 Y-34.0579 F200.00
G01 X15.2429 Y-34.0651 F200.00
G01 X15.2365 Y-34.0730 F200.00
G01 X15.2311 Y-34.0817 F200.00
G01 X15.2267 Y-34.0909 F200.00
G01 X15.2234 Y-34.1005 F200.00
G01 X15.2212 Y-34.1105 F200.00
G01 X15.2201 Y-34.1206 F200.00
G01 X15.2200 Y-35.4047 F200.00
G01 X14.7049 Y-35.9199 F200.00
G01 X14.6832 Y-35.9441 F200.00
G01 X14.6644 Y-35.9707 F200.00
G01 X14.6486 Y-35.9991 F200.00
G01 X14.6362 Y-36.0292 F200.00
G01 X14.6272 Y-36.0604 F200.00
G01 X14.6217 Y-36.0925 F200.00
G01 X14.6199 Y-36.1250 F200.00
G01 X14.6199 Y-36.4048 F200.00
G01 X14.4848 Y-36.5399 F200.00
G01 X10.9607 Y-36.5399 F200.00
G01 X10.9276 Y-36.4603 F200.00
G01 X10.8840 Y-36.3811 F200.00
G01 X10.8786 Y-36.3725 F200.00
G01 X10.8261 Y-36.2988 F200.00
G01 X10.7659 Y-36.2312 F200.00
G01 X10.7588 Y-36.2241 F200.00
G01 X10.6912 Y-36.1639 F200.00
G01 X10.6175 Y-36.1114 F200.00
G01 X10.6089 Y-36.1060 F200.00
G01 X10.5297 Y-36.0624 F200.00
G01 X10.4461 Y-36.0276 F200.00
G01 X10.4366 Y-36.0243 F200.00
G01 X10.3496 Y-35.9994 F200.00
G01 X10.2604 Y-35.9841 F200.00
G01 X10.2504 Y-35.9829 F200.00
G01 X10.1600 Y-35.9780 F200.00
G01 X10.0696 Y-35.9829 F200.00
G01 X10.0596 Y-35.9841 F200.00
G01 X9.9704 Y-35.9994 F200.00
G01 X9.8834 Y-36.0243 F200.00
G01 X9.8739 Y-36.0276 F200.00
G01 X9.7903 Y-36.0624 F200.00
G01 X9.7111 Y-36.1060 F200.00
G01 X9.7025 Y-36.1114 F200.00
G01 X9.6288 Y-36.1639 F200.00
G01 X9.5612 Y-36.2241 F200.00
G01 X9.5541 Y-36.2312 F200.00
G01 X9.4939 Y-36.2988 F200.00
G01 X9.4386 Y-36.3767 F200.00
G01 X9.3947 Y-36.4558 F200.00
G01 X9.3903 Y-36.4649 F200.00
G01 X9.3558 Y-36.5486 F200.00
G01 X9.3294 Y-36.6404 F200.00
G01 X9.3134 Y-36.7346 F200.00
G01 X9.3080 Y-36.8300 F200.00
G01 X9.3129 Y-36.9204 F200.00
G01 X9.3141 Y-36.9304 F200.00
G01 X9.3284 Y-37.0146 F200.00
G01 X9.3306 Y-37.0245 F200.00
G01 X9.3558 Y-37.1114 F200.00
G01 X9.3924 Y-37.1997 F200.00
G01 X9.4386 Y-37.2833 F200.00
G01 X9.4939 Y-37.3612 F200.00
G01 X9.5575 Y-37.4325 F200.00
G01 X9.6249 Y-37.4929 F200.00
G01 X9.6328 Y-37.4992 F200.00
G01 X9.7025 Y-37.5486 F200.00
G01 X9.7111 Y-37.5540 F200.00
G01 X9.7903 Y-37.5976 F200.00
G01 X9.8786 Y-37.6342 F200.00
G01 X9.9704 Y-37.6606 F200.00
G01 X10.0646 Y-37.6766 F200.00
G01 X10.1600 Y-37.6820 F200.00
G01 X10.2504 Y-37.6771 F200.00
G01 X10.2604 Y-37.6759 F200.00
G01 X10.3446 Y-37.6616 F200.00
G01 X10.3545 Y-37.6594 F200.00
G01 X10.4414 Y-37.6342 F200.00
G01 X10.5297 Y-37.5976 F200.00
G01 X10.6133 Y-37.5514 F200.00
G01 X10.6872 Y-37.4992 F200.00
G01 X10.6951 Y-37.4929 F200.00
G01 X10.7588 Y-37.4359 F200.00
G01 X10.7659 Y-37.4288 F200.00
G01 X10.8261 Y-37.3612 F200.00
G01 X10.8814 Y-37.2833 F200.00
G01 X10.9276 Y-37.1997 F200.00
G01 X10.9607 Y-37.1201 F200.00
G00 Z2.5400
G00 X16.1100 Y-33.2750
G01 F100.00
G01 Z-0.1000
G01 F200.00
G01 X16.9125 Y-33.2750 F200.00
G01 X17.0096 Y-33.2694 F200.00
G01 X17.1031 Y-33.2537 F200.00
G01 X17.1129 Y-33.2514 F200.00
G01 X17.2039 Y-33.2251 F200.00
G01 X17.2915 Y-33.1889 F200.00
G01 X17.3006 Y-33.1845 F200.00
G01 X17.3835 Y-33.1386 F200.00
G01 X17.4609 Y-33.0839 F200.00
G01 X17.4688 Y-33.0776 F200.00
G01 X17.5357 Y-33.0178 F200.00
G01 X17.5428 Y-33.0107 F200.00
G01 X17.6058 Y-32.9399 F200.00
G01 X17.6636 Y-32.8585 F200.00
G01 X17.7119 Y-32.7712 F200.00
G01 X17.7483 Y-32.6837 F200.00
G01 X17.7516 Y-32.6741 F200.00
G01 X17.7764 Y-32.5879 F200.00
G01 X17.7787 Y-32.5781 F200.00
G01 X17.7944 Y-32.4846 F200.00
G01 X17.8000 Y-32.3850 F200.00
G01 X17.7944 Y-32.2854 F200.00
G01 X17.7777 Y-32.1870 F200.00
G01 X17.7501 Y-32.0911 F200.00
G01 X17.7139 Y-32.0035 F200.00
G01 X17.7095 Y-31.9944 F200.00
G01 X17.6636 Y-31.9115 F200.00
G01 X17.6089 Y-31.8341 F200.00
G01 X17.6026 Y-31.8262 F200.00
G01 X17.5428 Y-31.7593 F200.00
G01 X17.5357 Y-31.7522 F200.00
G01 X17.4688 Y-31.6924 F200.00
G01 X17.4609 Y-31.6861 F200.00
G01 X17.3835 Y-31.6314 F200.00
G01 X17.3006 Y-31.5855 F200.00
G01 X17.2915 Y-31.5811 F200.00
G01 X17.2039 Y-31.5449 F200.00
G01 X17.1129 Y-31.5186 F200.00
G01 X17.1031 Y-31.5163 F200.00
G01 X17.0096 Y-31.5006 F200.00
G01 X16.9125 Y-31.4950 F200.00
G01 X16.1100 Y-31.4950 F200.00
G01 X16.0104 Y-31.5006 F200.00
G01 X15.9120 Y-31.5173 F200.00
G01 X15.8161 Y-31.5449 F200.00
G01 X15.7285 Y-31.5811 F200.00
G01 X15.7194 Y-31.5855 F200.00
G01 X15.6365 Y-31.6314 F200.00
G01 X15.5591 Y-31.6861 F200.00
G01 X15.5512 Y-31.6924 F200.00
G01 X15.4843 Y-31.7522 F200.00
G01 X15.4772 Y-31.7593 F200.00
G01 X15.4142 Y-31.8301 F200.00
G01 X15.3592 Y-31.9073 F200.00
G01 X15.3539 Y-31.9158 F200.00
G01 X15.3081 Y-31.9988 F200.00
G01 X15.2717 Y-32.0863 F200.00
G01 X15.2684 Y-32.0959 F200.00
G01 X15.2423 Y-32.1870 F200.00
G01 X15.2263 Y-32.2804 F200.00
G01 X15.2252 Y-32.2904 F200.00
G01 X15.2200 Y-32.3850 F200.00
G01 X15.2252 Y-32.4796 F200.00
G01 X15.2263 Y-32.4896 F200.00
G01 X15.2423 Y-32.5830 F200.00
G01 X15.2684 Y-32.6741 F200.00
G01 X15.2717 Y-32.6837 F200.00
G01 X15.3061 Y-32.7665 F200.00
G01 X15.3105 Y-32.7756 F200.00
G01 X15.3564 Y-32.8585 F200.00
G01 X15.4111 Y-32.9359 F200.00
G01 X15.4174 Y-32.9438 F200.00
G01 X15.4807 Y-33.0143 F200.00
G01 X15.5512 Y-33.0776 F200.00
G01 X15.5591 Y-33.0839 F200.00
G01 X15.6365 Y-33.1386 F200.00
G01 X15.7238 Y-33.1869 F200.00
G01 X15.8113 Y-33.2233 F200.00
G01 X15.8209 Y-33.2266 F200.00
G01 X15.9120 Y-33.2527 F200.00
G01 X16.0054 Y-33.2687 F200.00
G01 X16.0154 Y-33.2698 F200.00
G01 X16.1100 Y-33.2750 F200.00
G00 Z2.5400
G00 X16.1100 Y-30.7350
G01 F100.00
G01 Z-0.1000
G01 F200.00
G01 X16.9100 Y-30.7350 F200.00
G01 X17.0046 Y-30.7298 F200.00
G01 X17.0146 Y-30.7287 F200.00
G01 X17.1031 Y-30.7137 F200.00
G01 X17.1129 Y-30.7114 F200.00
G01 X17.2039 Y-30.6851 F200.00
G01 X17.2997 Y-30.6450 F200.00
G01 X24.3249 Y-37.6701 F200.00
G01 X24.3532 Y-37.6948 F200.00
G01 X24.3757 Y-37.7106 F200.00
G01 X24.3996 Y-37.7241 F200.00
G01 X24.4342 Y-37.7388 F200.00
G01 X24.4654 Y-37.7478 F200.00
G01 X24.4975 Y-37.7533 F200.00
G01 X24.5300 Y-37.7551 F200.00
G01 X28.2700 Y-37.7551 F200.00
G01 X28.2701 Y-38.3194 F200.00
G01 X28.2712 Y-38.3295 F200.00
G01 X28.2734 Y-38.3395 F200.00
G01 X28.2767 Y-38.3491 F200.00
G01 X28.2811 Y-38.3583 F200.00
G01 X28.2865 Y-38.3670 F200.00
G01 X28.2929 Y-38.3749 F200.00
G01 X28.3001 Y-38.3821 F200.00
G01 X28.3080 Y-38.3885 F200.00
G01 X28.3167 Y-38.3939 F200.00
G01 X28.3259 Y-38.3983 F200.00
G01 X28.3355 Y-38.4016 F200.00
G01 X28.3454 Y-38.4038 F200.00
G01 X28.3600 Y-38.4050 F200.00
G01 X30.0600 Y-38.4050 F200.00
G01 X30.0746 Y-38.4038 F200.00
G01 X30.0845 Y-38.4016 F200.00
G01 X30.0941 Y-38.3983 F200.00
G01 X30.1033 Y-38.3939 F200.00
G01 X30.1120 Y-38.3885 F200.00
G01 X30.1199 Y-38.3821 F200.00
G01 X30.1271 Y-38.3749 F200.00
G01 X30.1335 Y-38.3670 F200.00
G01 X30.1389 Y-38.3583 F200.00
G01 X30.1433 Y-38.3491 F200.00
G01 X30.1466 Y-38.3395 F200.00
G01 X30.1488 Y-38.3295 F200.00
G01 X30.1500 Y-38.3150 F200.00
G01 X30.1499 Y-36.6106 F200.00
G01 X30.1488 Y-36.6005 F200.00
G01 X30.1466 Y-36.5905 F200.00
G01 X30.1433 Y-36.5809 F200.00
G01 X30.1389 Y-36.5717 F200.00
G01 X30.1335 Y-36.5630 F200.00
G01 X30.1271 Y-36.5551 F200.00
G01 X30.1199 Y-36.5479 F200.00
G01 X30.1120 Y-36.5415 F200.00
G01 X30.1033 Y-36.5361 F200.00
G01 X30.0941 Y-36.5317 F200.00
G01 X30.0845 Y-36.5284 F200.00
G01 X30.0746 Y-36.5262 F200.00
G01 X30.0600 Y-36.5250 F200.00
G01 X28.3600 Y-36.5250 F200.00
G01 X28.3454 Y-36.5262 F200.00
G01 X28.3355 Y-36.5284 F200.00
G01 X28.3259 Y-36.5317 F200.00
G01 X28.3167 Y-36.5361 F200.00
G01 X28.3080 Y-36.5415 F200.00
G01 X28.3001 Y-36.5479 F200.00
G01 X28.2929 Y-36.5551 F200.00
G01 X28.2865 Y-36.5630 F200.00
G01 X28.2811 Y-36.5717 F200.00
G01 X28.2767 Y-36.5809 F200.00
G01 X28.2734 Y-36.5905 F200.00
G01 X28.2712 Y-36.6005 F200.00
G01 X28.2701 Y-36.6106 F200.00
G01 X28.2700 Y-37.1749 F200.00
G01 X24.6502 Y-37.1749 F200.00
G01 X17.7100 Y-30.2347 F200.00
G01 X17.7501 Y-30.1389 F200.00
G01 X17.7764 Y-30.0479 F200.00
G01 X17.7787 Y-30.0381 F200.00
G01 X17.7937 Y-29.9496 F200.00
G01 X17.7948 Y-29.9396 F200.00
G01 X17.8000 Y-29.8450 F200.00
G01 X17.7944 Y-29.7454 F200.00
G01 X17.7777 Y-29.6470 F200.00
G01 X17.7501 Y-29.5511 F200.00
G01 X17.7119 Y-29.4588 F200.00
G01 X17.6661 Y-29.3758 F200.00
G01 X17.6608 Y-29.3673 F200.00
G01 X17.6089 Y-29.2941 F200.00
G01 X17.6026 Y-29.2862 F200.00
G01 X17.5393 Y-29.2157 F200.00
G01 X17.4649 Y-29.1492 F200.00
G01 X17.3835 Y-29.0914 F200.00
G01 X17.3006 Y-29.0455 F200.00
G01 X17.2915 Y-29.0411 F200.00
G01 X17.2039 Y-29.0049 F200.00
G01 X17.1129 Y-28.9786 F200.00
G01 X17.1031 Y-28.9763 F200.00
G01 X17.0146 Y-28.9613 F200.00
G01 X17.0046 Y-28.9602 F200.00
G01 X16.9100 Y-28.9550 F200.00
G01 X16.1100 Y-28.9550 F200.00
G01 X16.0154 Y-28.9602 F200.00
G01 X16.0054 Y-28.9613 F200.00
G01 X15.9120 Y-28.9773 F200.00
G01 X15.8161 Y-29.0049 F200.00
G01 X15.7238 Y-29.0431 F200.00
G01 X15.6365 Y-29.0914 F200.00
G01 X15.5551 Y-29.1492 F200.00
G01 X15.4807 Y-29.2157 F200.00
G01 X15.4142 Y-29.2901 F200.00
G01 X15.3592 Y-29.3673 F200.00
G01 X15.3539 Y-29.3758 F200.00
G01 X15.3081 Y-29.4588 F200.00
G01 X15.2717 Y-29.5463 F200.00
G01 X15.2684 Y-29.5559 F200.00
G01 X15.2436 Y-29.6421 F200.00
G01 X15.2413 Y-29.6519 F200.00
G01 X15.2256 Y-29.7454 F200.00
G01 X15.2201 Y-29.8400 F200.00
G01 X15.2201 Y-29.8500 F200.00
G01 X15.2256 Y-29.9446 F200.00
G01 X15.2423 Y-30.0430 F200.00
G01 X15.2699 Y-30.1389 F200.00
G01 X15.3061 Y-30.2265 F200.00
G01 X15.3105 Y-30.2356 F200.00
G01 X15.3539 Y-30.3142 F200.00
G01 X15.3592 Y-30.3227 F200.00
G01 X15.4142 Y-30.3999 F200.00
G01 X15.4772 Y-30.4707 F200.00
G01 X15.4843 Y-30.4778 F200.00
G01 X15.5551 Y-30.5408 F200.00
G01 X15.6365 Y-30.5986 F200.00
G01 X15.7194 Y-30.6445 F200.00
G01 X15.7285 Y-30.6489 F200.00
G01 X15.8161 Y-30.6851 F200.00
G01 X15.9071 Y-30.7114 F200.00
G01 X15.9169 Y-30.7137 F200.00
G01 X16.0104 Y-30.7294 F200.00
G01 X16.1100 Y-30.7350 F200.00
G00 Z2.5400
G00 X16.1100 Y-28.1950
G01 F100.00
G01 Z-0.1000
G01 F200.00
G01 X16.9125 Y-28.1950 F200.00
G01 X17.0096 Y-28.1894 F200.00
G01 X17.1031 Y-28.1737 F200.00
G01 X17.1129 Y-28.1714 F200.00
G01 X17.2039 Y-28.1451 F200.00
G01 X17.2915 Y-28.1089 F200.00
G01 X17.3006 Y-28.1045 F200.00
G01 X17.3835 Y-28.0586 F200.00
G01 X17.4609 Y-28.0039 F200.00
G01 X17.4688 Y-27.9976 F200.00
G01 X17.5357 Y-27.9378 F200.00
G01 X17.5428 Y-27.9307 F200.00
G01 X17.6058 Y-27.8599 F200.00
G01 X17.6636 Y-27.7785 F200.00
G01 X17.7119 Y-27.6912 F200.00
G01 X17.7483 Y-27.6037 F200.00
G01 X17.7516 Y-27.5941 F200.00
G01 X17.7764 Y-27.5079 F200.00
G01 X17.7787 Y-27.4981 F200.00
G01 X17.7944 Y-27.4046 F200.00
G01 X17.8000 Y-27.3050 F200.00
G01 X17.7944 Y-27.2054 F200.00
G01 X17.7777 Y-27.1070 F200.00
G01 X17.7501 Y-27.0111 F200.00
G01 X17.7139 Y-26.9235 F200.00
G01 X17.7095 Y-26.9144 F200.00
G01 X17.6636 Y-26.8315 F200.00
G01 X17.6089 Y-26.7541 F200.00
G01 X17.6026 Y-26.7462 F200.00
G01 X17.5428 Y-26.6793 F200.00
G01 X17.5357 Y-26.6722 F200.00
G01 X17.4688 Y-26.6124 F200.00
G01 X17.4609 Y-26.6061 F200.00
G01 X17.3835 Y-26.5514 F200.00
G01 X17.3006 Y-26.5055 F200.00
G01 X17.2915 Y-26.5011 F200.00
G01 X17.2039 Y-26.4649 F200.00
G01 X17.1129 Y-26.4386 F200.00
G01 X17.1031 Y-26.4363 F200.00
G01 X17.0096 Y-26.4206 F200.00
G01 X16.9125 Y-26.4150 F200.00
G01 X16.1100 Y-26.4150 F200.00
G01 X16.0104 Y-26.4206 F200.00
G01 X15.9120 Y-26.4373 F200.00
G01 X15.8161 Y-26.4649 F200.00
G01 X15.7285 Y-26.5011 F200.00
G01 X15.7194 Y-26.5055 F200.00
G01 X15.6365 Y-26.5514 F200.00
G01 X15.5591 Y-26.6061 F200.00
G01 X15.5512 Y-26.6124 F200.00
G01 X15.4843 Y-26.6722 F200.00
G01 X15.4772 Y-26.6793 F200.00
G01 X15.4142 Y-26.7501 F200.00
G01 X15.3592 Y-26.8273 F200.00
G01 X15.3539 Y-26.8358 F200.00
G01 X15.3081 Y-26.9188 F200.00
G01 X15.2717 Y-27.0063 F200.00
G01 X15.2684 Y-27.0159 F200.00
G01 X15.2423 Y-27.1070 F200.00
G01 X15.2263 Y-27.2004 F200.00
G01 X15.2252 Y-27.2104 F200.00
G01 X15.2200 Y-27.3050 F200.00
G01 X15.2252 Y-27.3996 F200.00
G01 X15.2263 Y-27.4096 F200.00
G01 X15.2423 Y-27.5030 F200.00
G01 X15.2684 Y-27.5941 F200.00
G01 X15.2717 Y-27.6037 F200.00
G01 X15.3061 Y-27.6865 F200.00
G01 X15.3105 Y-27.6956 F200.00
G01 X15.3564 Y-27.7785 F200.00
G01 X15.4111 Y-27.8559 F200.00
G01 X15.4174 Y-27.8638 F200.00
G01 X15.4807 Y-27.9343 F200.00
G01 X15.5512 Y-27.9976 F200.00
G01 X15.5591 Y-28.0039 F200.00
G01 X15.6365 Y-28.0586 F200.00
G01 X15.7194 Y-28.1045 F200.00
G01 X15.7285 Y-28.1089 F200.00
G01 X15.8161 Y-28.1451 F200.00
G01 X15.9071 Y-28.1714 F200.00
G01 X15.9169 Y-28.1737 F200.00
G01 X16.0104 Y-28.1894 F200.00
G01 X16.1100 Y-28.1950 F200.00
G00 Z2.5400
G00 X23.7300 Y-30.7350
G01 F100.00
G01 Z-0.1000
G01 F200.00
G01 X24.5350 Y-30.7349 F200.00
G01 X24.6296 Y-30.7294 F200.00
G01 X24.7231 Y-30.7137 F200.00
G01 X24.7329 Y-30.7114 F200.00
G01 X24.8239 Y-30.6851 F200.00
G01 X24.9162 Y-30.6469 F200.00
G01 X25.0035 Y-30.5986 F200.00
G01 X25.0849 Y-30.5408 F200.00
G01 X25.1593 Y-30.4743 F200.00
G01 X25.2258 Y-30.3999 F200.00
G01 X25.2836 Y-30.3185 F200.00
G01 X25.3319 Y-30.2312 F200.00
G01 X25.3713 Y-30.1351 F200.00
G01 X26.6725 Y-30.1351 F200.00
G01 X26.7075 Y-30.1326 F200.00
G01 X26.7346 Y-30.1278 F200.00
G01 X26.7610 Y-30.1204 F200.00
G01 X26.7959 Y-30.1064 F200.00
G01 X26.8243 Y-30.0906 F200.00
G01 X26.8509 Y-30.0718 F200.00
G01 X26.8751 Y-30.0501 F200.00
G01 X28.7835 Y-28.1418 F200.00
G01 X28.8068 Y-28.1540 F200.00
G01 X28.8995 Y-28.1923 F200.00
G01 X28.9959 Y-28.2202 F200.00
G01 X29.0058 Y-28.2224 F200.00
G01 X29.1048 Y-28.2391 F200.00
G01 X29.2050 Y-28.2449 F200.00
G01 X29.2150 Y-28.2449 F200.00
G01 X29.3102 Y-28.2395 F200.00
G01 X29.3202 Y-28.2384 F200.00
G01 X29.4192 Y-28.2214 F200.00
G01 X29.5157 Y-28.1938 F200.00
G01 X29.5252 Y-28.1904 F200.00
G01 X29.6179 Y-28.1519 F200.00
G01 X29.7058 Y-28.1035 F200.00
G01 X29.7143 Y-28.0981 F200.00
G01 X29.7961 Y-28.0399 F200.00
G01 X29.8747 Y-27.9697 F200.00
G01 X29.9449 Y-27.8911 F200.00
G01 X30.0031 Y-27.8093 F200.00
G01 X30.0085 Y-27.8008 F200.00
G01 X30.0569 Y-27.7129 F200.00
G01 X30.0973 Y-27.6155 F200.00
G01 X30.1252 Y-27.5191 F200.00
G01 X30.1274 Y-27.5092 F200.00
G01 X30.1441 Y-27.4102 F200.00
G01 X30.1499 Y-27.3100 F200.00
G01 X30.1499 Y-27.3000 F200.00
G01 X30.1441 Y-27.1998 F200.00
G01 X30.1264 Y-27.0958 F200.00
G01 X30.0988 Y-26.9993 F200.00
G01 X30.0954 Y-26.9898 F200.00
G01 X30.0569 Y-26.8971 F200.00
G01 X30.0059 Y-26.8049 F200.00
G01 X29.9449 Y-26.7189 F200.00
G01 X29.8747 Y-26.6403 F200.00
G01 X29.7961 Y-26.5701 F200.00
G01 X29.7101 Y-26.5091 F200.00
G01 X29.6179 Y-26.4581 F200.00
G01 X29.5205 Y-26.4177 F200.00
G01 X29.4192 Y-26.3886 F200.00
G01 X29.3202 Y-26.3716 F200.00
G01 X29.3102 Y-26.3705 F200.00
G01 X29.2150 Y-26.3651 F200.00
G01 X29.2050 Y-26.3651 F200.00
G01 X29.1048 Y-26.3709 F200.00
G01 X29.0058 Y-26.3876 F200.00
G01 X28.9959 Y-26.3898 F200.00
G01 X28.8995 Y-26.4177 F200.00
G01 X28.8021 Y-26.4581 F200.00
G01 X28.7099 Y-26.5091 F200.00
G01 X28.6239 Y-26.5701 F200.00
G01 X28.5453 Y-26.6403 F200.00
G01 X28.4783 Y-26.7151 F200.00
G01 X28.4720 Y-26.7230 F200.00
G01 X28.4141 Y-26.8049 F200.00
G01 X28.3631 Y-26.8971 F200.00
G01 X28.3246 Y-26.9898 F200.00
G01 X28.3212 Y-26.9993 F200.00
G01 X28.2936 Y-27.0958 F200.00
G01 X28.2759 Y-27.1998 F200.00
G01 X28.2701 Y-27.3000 F200.00
G01 X28.2701 Y-27.3100 F200.00
G01 X28.2759 Y-27.4102 F200.00
G01 X28.2936 Y-27.5142 F200.00
G01 X28.3212 Y-27.6107 F200.00
G01 X28.3246 Y-27.6202 F200.00
G01 X28.3610 Y-27.7082 F200.00
G01 X28.3732 Y-27.7315 F200.00
G01 X26.5498 Y-29.5549 F200.00
G01 X25.3713 Y-29.5549 F200.00
G01 X25.3319 Y-29.4588 F200.00
G01 X25.2861 Y-29.3758 F200.00
G01 X25.2808 Y-29.3673 F200.00
G01 X25.2258 Y-29.2901 F200.00
G01 X25.1628 Y-29.2193 F200.00
G01 X25.1557 Y-29.2122 F200.00
G01 X25.0849 Y-29.1492 F200.00
G01 X25.0035 Y-29.0914 F200.00
G01 X24.9206 Y-29.0455 F200.00
G01 X24.9115 Y-29.0411 F200.00
G01 X24.8239 Y-29.0049 F200.00
G01 X24.7329 Y-28.9786 F200.00
G01 X24.7231 Y-28.9763 F200.00
G01 X24.6296 Y-28.9606 F200.00
G01 X24.5300 Y-28.9550 F200.00
G01 X23.7300 Y-28.9550 F200.00
G01 X23.6304 Y-28.9606 F200.00
G01 X23.5320 Y-28.9773 F200.00
G01 X23.4361 Y-29.0049 F200.00
G01 X23.3438 Y-29.0431 F200.00
G01 X23.2565 Y-29.0914 F200.00
G01 X23.1791 Y-29.1461 F200.00
G01 X23.1712 Y-29.1524 F200.00
G01 X23.1007 Y-29.2157 F200.00
G01 X23.0342 Y-29.2901 F200.00
G01 X22.9792 Y-29.3673 F200.00
G01 X22.9739 Y-29.3758 F200.00
G01 X22.9281 Y-29.4588 F200.00
G01 X22.8899 Y-29.5511 F200.00
G01 X22.8636 Y-29.6421 F200.00
G01 X22.8613 Y-29.6519 F200.00
G01 X22.8456 Y-29.7454 F200.00
G01 X22.8400 Y-29.8450 F200.00
G01 X22.8452 Y-29.9396 F200.00
G01 X22.8463 Y-29.9496 F200.00
G01 X22.8623 Y-30.0430 F200.00
G01 X22.8884 Y-30.1341 F200.00
G01 X22.8917 Y-30.1437 F200.00
G01 X22.9261 Y-30.2265 F200.00
G01 X22.9305 Y-30.2356 F200.00
G01 X22.9764 Y-30.3185 F200.00
G01 X23.0311 Y-30.3959 F200.00
G01 X23.0374 Y-30.4038 F200.00
G01 X23.1007 Y-30.4743 F200.00
G01 X23.1712 Y-30.5376 F200.00
G01 X23.1791 Y-30.5439 F200.00
G01 X23.2565 Y-30.5986 F200.00
G01 X23.3394 Y-30.6445 F200.00
G01 X23.3485 Y-30.6489 F200.00
G01 X23.4361 Y-30.6851 F200.00
G01 X23.5271 Y-30.7114 F200.00
G01 X23.5369 Y-30.7137 F200.00
G01 X23.6304 Y-30.7294 F200.00
G01 X23.7300 Y-30.7350 F200.00
G00 Z2.5400
G00 X23.7300 Y-33.2750
G01 F100.00
G01 Z-0.1000
G01 F200.00
G01 X24.5350 Y-33.2749 F200.00
G01 X24.6296 Y-33.2694 F200.00
G01 X24.7231 Y-33.2537 F200.00
G01 X24.7329 Y-33.2514 F200.00
G01 X24.8239 Y-33.2251 F200.00
G01 X24.9162 Y-33.1869 F200.00
G01 X25.0035 Y-33.1386 F200.00
G01 X25.0849 Y-33.0808 F200.00
G01 X25.1593 Y-33.0143 F200.00
G01 X25.2258 Y-32.9399 F200.00
G01 X25.2836 Y-32.8585 F200.00
G01 X25.3319 Y-32.7712 F200.00
G01 X25.3713 Y-32.6751 F200.00
G01 X26.6725 Y-32.6751 F200.00
G01 X26.7075 Y-32.6726 F200.00
G01 X26.7346 Y-32.6678 F200.00
G01 X26.7610 Y-32.6604 F200.00
G01 X26.7959 Y-32.6464 F200.00
G01 X26.8243 Y-32.6306 F200.00
G01 X26.8509 Y-32.6118 F200.00
G01 X26.8751 Y-32.5901 F200.00
G01 X28.7835 Y-30.6818 F200.00
G01 X28.8068 Y-30.6940 F200.00
G01 X28.8995 Y-30.7323 F200.00
G01 X28.9959 Y-30.7602 F200.00
G01 X29.0058 Y-30.7624 F200.00
G01 X29.1048 Y-30.7791 F200.00
G01 X29.2050 Y-30.7849 F200.00
G01 X29.2150 Y-30.7849 F200.00
G01 X29.3102 Y-30.7795 F200.00
G01 X29.3202 Y-30.7784 F200.00
G01 X29.4192 Y-30.7614 F200.00
G01 X29.5157 Y-30.7338 F200.00
G01 X29.5252 Y-30.7304 F200.00
G01 X29.6179 Y-30.6919 F200.00
G01 X29.7058 Y-30.6435 F200.00
G01 X29.7143 Y-30.6381 F200.00
G01 X29.7961 Y-30.5799 F200.00
G01 X29.8747 Y-30.5097 F200.00
G01 X29.9449 Y-30.4311 F200.00
G01 X30.0031 Y-30.3493 F200.00
G01 X30.0085 Y-30.3408 F200.00
G01 X30.0569 Y-30.2529 F200.00
G01 X30.0973 Y-30.1555 F200.00
G01 X30.1252 Y-30.0591 F200.00
G01 X30.1274 Y-30.0492 F200.00
G01 X30.1441 Y-29.9502 F200.00
G01 X30.1499 Y-29.8500 F200.00
G01 X30.1499 Y-29.8400 F200.00
G01 X30.1441 Y-29.7398 F200.00
G01 X30.1264 Y-29.6358 F200.00
G01 X30.0988 Y-29.5393 F200.00
G01 X30.0954 Y-29.5298 F200.00
G01 X30.0569 Y-29.4371 F200.00
G01 X30.0059 Y-29.3449 F200.00
G01 X29.9449 Y-29.2589 F200.00
G01 X29.8747 Y-29.1803 F200.00
G01 X29.7961 Y-29.1101 F200.00
G01 X29.7101 Y-29.0491 F200.00
G01 X29.6179 Y-28.9981 F200.00
G01 X29.5205 Y-28.9577 F200.00
G01 X29.4192 Y-28.9286 F200.00
G01 X29.3202 Y-28.9116 F200.00
G01 X29.3102 Y-28.9105 F200.00
G01 X29.2150 Y-28.9051 F200.00
G01 X29.2050 Y-28.9051 F200.00
G01 X29.1048 Y-28.9109 F200.00
G01 X29.0058 Y-28.9276 F200.00
G01 X28.9959 Y-28.9298 F200.00
G01 X28.8995 Y-28.9577 F200.00
G01 X28.8021 Y-28.9981 F200.00
G01 X28.7099 Y-29.0491 F200.00
G01 X28.6239 Y-29.1101 F200.00
G01 X28.5453 Y-29.1803 F200.00
G01 X28.4783 Y-29.2551 F200.00
G01 X28.4720 Y-29.2630 F200.00
G01 X28.4141 Y-29.3449 F200.00
G01 X28.3631 Y-29.4371 F200.00
G01 X28.3246 Y-29.5298 F200.00
G01 X28.3212 Y-29.5393 F200.00
G01 X28.2936 Y-29.6358 F200.00
G01 X28.2759 Y-29.7398 F200.00
G01 X28.2701 Y-29.8400 F200.00
G01 X28.2701 Y-29.8500 F200.00
G01 X28.2759 Y-29.9502 F200.00
G01 X28.2936 Y-30.0542 F200.00
G01 X28.3212 Y-30.1507 F200.00
G01 X28.3246 Y-30.1602 F200.00
G01 X28.3610 Y-30.2482 F200.00
G01 X28.3732 Y-30.2715 F200.00
G01 X26.5498 Y-32.0949 F200.00
G01 X25.3713 Y-32.0949 F200.00
G01 X25.3319 Y-31.9988 F200.00
G01 X25.2861 Y-31.9158 F200.00
G01 X25.2808 Y-31.9073 F200.00
G01 X25.2258 Y-31.8301 F200.00
G01 X25.1628 Y-31.7593 F200.00
G01 X25.1557 Y-31.7522 F200.00
G01 X25.0849 Y-31.6892 F200.00
G01 X25.0035 Y-31.6314 F200.00
G01 X24.9206 Y-31.5855 F200.00
G01 X24.9115 Y-31.5811 F200.00
G01 X24.8239 Y-31.5449 F200.00
G01 X24.7329 Y-31.5186 F200.00
G01 X24.7231 Y-31.5163 F200.00
G01 X24.6296 Y-31.5006 F200.00
G01 X24.5300 Y-31.4950 F200.00
G01 X23.7300 Y-31.4950 F200.00
G01 X23.6304 Y-31.5006 F200.00
G01 X23.5320 Y-31.5173 F200.00
G01 X23.4361 Y-31.5449 F200.00
G01 X23.3438 Y-31.5831 F200.00
G01 X23.2565 Y-31.6314 F200.00
G01 X23.1791 Y-31.6861 F200.00
G01 X23.1712 Y-31.6924 F200.00
G01 X23.1007 Y-31.7557 F200.00
G01 X23.0342 Y-31.8301 F200.00
G01 X22.9792 Y-31.9073 F200.00
G01 X22.9739 Y-31.9158 F200.00
G01 X22.9281 Y-31.9988 F200.00
G01 X22.8899 Y-32.0911 F200.00
G01 X22.8623 Y-32.1870 F200.00
G01 X22.8463 Y-32.2804 F200.00
G01 X22.8452 Y-32.2904 F200.00
G01 X22.8400 Y-32.3850 F200.00
G01 X22.8452 Y-32.4796 F200.00
G01 X22.8463 Y-32.4896 F200.00
G01 X22.8623 Y-32.5830 F200.00
G01 X22.8884 Y-32.6741 F200.00
G01 X22.8917 Y-32.6837 F200.00
G01 X22.9281 Y-32.7712 F200.00
G01 X22.9739 Y-32.8542 F200.00
G01 X22.9792 Y-32.8627 F200.00
G01 X23.0342 Y-32.9399 F200.00
G01 X23.0972 Y-33.0107 F200.00
G01 X23.1043 Y-33.0178 F200.00
G01 X23.1712 Y-33.0776 F200.00
G01 X23.1791 Y-33.0839 F200.00
G01 X23.2565 Y-33.1386 F200.00
G01 X23.3394 Y-33.1845 F200.00
G01 X23.3485 Y-33.1889 F200.00
G01 X23.4361 Y-33.2251 F200.00
G01 X23.5320 Y-33.2527 F200.00
G01 X23.6254 Y-33.2687 F200.00
G01 X23.6354 Y-33.2698 F200.00
G01 X23.7300 Y-33.2750 F200.00
G00 Z2.5400
G00 X29.2150 Y-25.7049
G01 F100.00
G01 Z-0.1000
G01 F200.00
G01 X29.3152 Y-25.6991 F200.00
G01 X29.4192 Y-25.6814 F200.00
G01 X29.5205 Y-25.6523 F200.00
G01 X29.6132 Y-25.6140 F200.00
G01 X29.6223 Y-25.6096 F200.00
G01 X29.7058 Y-25.5635 F200.00
G01 X29.7143 Y-25.5581 F200.00
G01 X29.7961 Y-25.4999 F200.00
G01 X29.8747 Y-25.4297 F200.00
G01 X29.9449 Y-25.3511 F200.00
G01 X30.0059 Y-25.2651 F200.00
G01 X30.0569 Y-25.1729 F200.00
G01 X30.0954 Y-25.0802 F200.00
G01 X30.0988 Y-25.0707 F200.00
G01 X30.1252 Y-24.9791 F200.00
G01 X30.1274 Y-24.9692 F200.00
G01 X30.1441 Y-24.8702 F200.00
G01 X30.1500 Y-24.7650 F200.00
G01 X30.1441 Y-24.6598 F200.00
G01 X30.1264 Y-24.5558 F200.00
G01 X30.0973 Y-24.4545 F200.00
G01 X30.0590 Y-24.3618 F200.00
G01 X30.0546 Y-24.3527 F200.00
G01 X30.0085 Y-24.2692 F200.00
G01 X30.0031 Y-24.2607 F200.00
G01 X29.9449 Y-24.1789 F200.00
G01 X29.8747 Y-24.1003 F200.00
G01 X29.7961 Y-24.0301 F200.00
G01 X29.7101 Y-23.9691 F200.00
G01 X29.6179 Y-23.9181 F200.00
G01 X29.5252 Y-23.8796 F200.00
G01 X29.5157 Y-23.8762 F200.00
G01 X29.4241 Y-23.8498 F200.00
G01 X29.4142 Y-23.8476 F200.00
G01 X29.3152 Y-23.8309 F200.00
G01 X29.2100 Y-23.8250 F200.00
G01 X29.1048 Y-23.8309 F200.00
G01 X29.0008 Y-23.8486 F200.00
G01 X28.8995 Y-23.8777 F200.00
G01 X28.8068 Y-23.9160 F200.00
G01 X28.7977 Y-23.9204 F200.00
G01 X28.7142 Y-23.9665 F200.00
G01 X28.7057 Y-23.9719 F200.00
G01 X28.6239 Y-24.0301 F200.00
G01 X28.5453 Y-24.1003 F200.00
G01 X28.4751 Y-24.1789 F200.00
G01 X28.4141 Y-24.2649 F200.00
G01 X28.3631 Y-24.3571 F200.00
G01 X28.3246 Y-24.4498 F200.00
G01 X28.3212 Y-24.4593 F200.00
G01 X28.2948 Y-24.5509 F200.00
G01 X28.2926 Y-24.5608 F200.00
G01 X28.2759 Y-24.6598 F200.00
G01 X28.2700 Y-24.7650 F200.00
G01 X28.2759 Y-24.8702 F200.00
G01 X28.2936 Y-24.9742 F200.00
G01 X28.3227 Y-25.0755 F200.00
G01 X28.3610 Y-25.1682 F200.00
G01 X28.3654 Y-25.1773 F200.00
G01 X28.4115 Y-25.2608 F200.00
G01 X28.4169 Y-25.2693 F200.00
G01 X28.4751 Y-25.3511 F200.00
G01 X28.5453 Y-25.4297 F200.00
G01 X28.6239 Y-25.4999 F200.00
G01 X28.7099 Y-25.5609 F200.00
G01 X28.8021 Y-25.6119 F200.00
G01 X28.8948 Y-25.6504 F200.00
G01 X28.9043 Y-25.6538 F200.00
G01 X29.0008 Y-25.6814 F200.00
G01 X29.0998 Y-25.6984 F200.00
G01 X29.1098 Y-25.6995 F200.00
G01 X29.2050 Y-25.7049 F200.00
G01 X29.2150 Y-25.7049 F200.00
G00 Z2.5400
G00 X24.2979 Y-14.1287
G01 F100.00
G01 Z-0.1000
G01 F200.00
G01 X24.0483 Y-14.3783 F200.00
G01 X24.0518 Y-14.3904 F200.00
G01 X24.4296 Y-14.5252 F200.00
G01 X24.9040 Y-14.5014 F200.00
G01 X25.1564 Y-14.3969 F200.00
G01 X25.1617 Y-14.3783 F200.00
G01 X24.9121 Y-14.1287 F200.00
G01 X24.8816 Y-14.1407 F200.00
G01 X24.7995 Y-14.1644 F200.00
G01 X24.7896 Y-14.1666 F200.00
G01 X24.7004 Y-14.1816 F200.00
G01 X24.6050 Y-14.1870 F200.00
G01 X24.5096 Y-14.1816 F200.00
G01 X24.4204 Y-14.1666 F200.00
G01 X24.4105 Y-14.1644 F200.00
G01 X24.3284 Y-14.1407 F200.00
G01 X24.2979 Y-14.1287 F200.00
G00 Z2.5400
G00 X23.8113 Y-13.0279
G01 F100.00
G01 Z-0.1000
G01 F200.00
G01 X23.5617 Y-12.7783 F200.00
G01 X23.5496 Y-12.7818 F200.00
G01 X23.4148 Y-13.1596 F200.00
G01 X23.4386 Y-13.6340 F200.00
G01 X23.5431 Y-13.8864 F200.00
G01 X23.5617 Y-13.8917 F200.00
G01 X23.8113 Y-13.6421 F200.00
G01 X23.7993 Y-13.6116 F200.00
G01 X23.7756 Y-13.5295 F200.00
G01 X23.7734 Y-13.5196 F200.00
G01 X23.7584 Y-13.4304 F200.00
G01 X23.7530 Y-13.3350 F200.00
G01 X23.7584 Y-13.2396 F200.00
G01 X23.7734 Y-13.1504 F200.00
G01 X23.7756 Y-13.1405 F200.00
G01 X23.7993 Y-13.0584 F200.00
G01 X23.8113 Y-13.0279 F200.00
G00 Z2.5400
G00 X24.2979 Y-12.5413
G01 F100.00
G01 Z-0.1000
G01 F200.00
G01 X24.3284 Y-12.5293 F200.00
G01 X24.4105 Y-12.5056 F200.00
G01 X24.4204 Y-12.5034 F200.00
G01 X24.5096 Y-12.4884 F200.00
G01 X24.6050 Y-12.4830 F200.00
G01 X24.7004 Y-12.4884 F200.00
G01 X24.7896 Y-12.5034 F200.00
G01 X24.7995 Y-12.5056 F200.00
G01 X24.8816 Y-12.5293 F200.00
G01 X24.9121 Y-12.5413 F200.00
G01 X25.1617 Y-12.2917 F200.00
G01 X25.1582 Y-12.2796 F200.00
G01 X24.7804 Y-12.1448 F200.00
G01 X24.3060 Y-12.1686 F200.00
G01 X24.0536 Y-12.2731 F200.00
G01 X24.0483 Y-12.2917 F200.00
G01 X24.2979 Y-12.5413 F200.00
G00 Z2.5400
G00 X25.3987 Y-13.0279
G01 F100.00
G01 Z-0.1000
G01 F200.00
G01 X25.4107 Y-13.0584 F200.00
G01 X25.4344 Y-13.1405 F200.00
G01 X25.4366 Y-13.1504 F200.00
G01 X25.4516 Y-13.2396 F200.00
G01 X25.4570 Y-13.3350 F200.00
G01 X25.4516 Y-13.4304 F200.00
G01 X25.4366 Y-13.5196 F200.00
G01 X25.4344 Y-13.5295 F200.00
G01 X25.4107 Y-13.6116 F200.00
G01 X25.3987 Y-13.6421 F200.00
G01 X25.6483 Y-13.8917 F200.00
G01 X25.6604 Y-13.8882 F200.00
G01 X25.7952 Y-13.5104 F200.00
G01 X25.7714 Y-13.0360 F200.00
G01 X25.6669 Y-12.7836 F200.00
G01 X25.6483 Y-12.7783 F200.00
G01 X25.3987 Y-13.0279 F200.00
G00 Z2.5400
G00 X7.8482 Y-2.7983
G01 F100.00
G01 Z-0.1000
G01 F200.00
G01 X7.8898 Y-2.8457 F200.00
G01 X8.1169 Y-3.1658 F200.00
G01 X8.1223 Y-3.1744 F200.00
G01 X8.3145 Y-3.5224 F200.00
G01 X8.4685 Y-3.8943 F200.00
G01 X8.5787 Y-4.2763 F200.00
G01 X8.5810 Y-4.2861 F200.00
G01 X8.6474 Y-4.6780 F200.00
G01 X8.6699 Y-5.0750 F200.00
G01 X8.6699 Y-5.0850 F200.00
G01 X8.6479 Y-5.4769 F200.00
G01 X8.6467 Y-5.4870 F200.00
G01 X8.5800 Y-5.8788 F200.00
G01 X8.4685 Y-6.2657 F200.00
G01 X8.3145 Y-6.6376 F200.00
G01 X8.1223 Y-6.9856 F200.00
G01 X8.1169 Y-6.9942 F200.00
G01 X7.8898 Y-7.3143 F200.00
G01 X7.8482 Y-7.3617 F200.00
G01 X8.0563 Y-7.5697 F200.00
G01 X8.3865 Y-7.3167 F200.00
G01 X8.9906 Y-5.8951 F200.00
G01 X9.0049 Y-4.3365 F200.00
G01 X8.4138 Y-2.8718 F200.00
G01 X8.4034 Y-2.8562 F200.00
G01 X8.0563 Y-2.5903 F200.00
G01 X7.8482 Y-2.7983 F200.00
G00 Z2.5400
M05
G00 Z2.5400
G00 Z50.80
G00 X0.0 Y0.0

M02